/* XPM */
static char *coin_33___copia1732190735[] = {
/* columns rows colors chars-per-pixel */
"60 60 122 2 ",
"   c #EB6900",
".  c #E37501",
"X  c #E47C03",
"o  c #E98102",
"O  c #E78A06",
"+  c #EB8C05",
"@  c #E68409",
"#  c #EA8A09",
"$  c #F48C07",
"%  c #EE9402",
"&  c #E69509",
"*  c #E89D11",
"=  c #EEA304",
"-  c #E6AC07",
";  c #EDAA04",
":  c #ECA40A",
">  c #ECAD0B",
",  c #F6A200",
"<  c #F3AF02",
"1  c #FCAB06",
"2  c #F0A20B",
"3  c #F1AD09",
"4  c #EEB303",
"5  c #EDBE06",
"6  c #ECB30B",
"7  c #ECBC0B",
"8  c #F4B301",
"9  c #FAB302",
"0  c #F1BC05",
"q  c #FCBB04",
"w  c #F1B40A",
"e  c #F3BC0A",
"r  c #F9BF09",
"t  c #E4B318",
"y  c #ECB01A",
"u  c #D6803E",
"i  c #DBB335",
"p  c #DEBF3F",
"a  c #E0B733",
"s  c #E9B130",
"d  c #EEC105",
"f  c #EDC30B",
"g  c #F4C303",
"h  c #FDC303",
"j  c #F5CC03",
"k  c #FCCC01",
"l  c #F3C30C",
"z  c #F8C70B",
"x  c #F4CC0B",
"c  c #EFD003",
"v  c #F7D504",
"b  c #FCD202",
"n  c #FCDC01",
"m  c #F5D30D",
"M  c #F8D50A",
"N  c #F6DC0C",
"B  c #F9DC0D",
"V  c #E9C413",
"C  c #EFCB14",
"Z  c #E9CF1C",
"A  c #F2C410",
"S  c #F6CC11",
"D  c #F8CD10",
"F  c #F1D010",
"G  c #F3DB14",
"H  c #F9DB11",
"J  c #F2DB18",
"K  c #FEE201",
"L  c #FFE901",
"P  c #F7E30B",
"I  c #F9E50A",
"U  c #F9EE09",
"Y  c #F5E51A",
"T  c #ECC527",
"R  c #EED223",
"E  c #E2CB3B",
"W  c #EBCB3A",
"Q  c #F4C630",
"!  c #E8E13C",
"~  c #BD9E67",
"^  c #B9906B",
"/  c #BEA779",
"(  c #CC934C",
")  c #D4AD4C",
"_  c #CEB146",
"`  c #D6B54C",
"'  c #DABF4A",
"]  c #D4BE5F",
"[  c #C99963",
"{  c #C4A36C",
"}  c #CAA169",
"|  c #CFB062",
" . c #CEB46B",
".. c #CAA87E",
"X. c #D4C361",
"o. c #FCE071",
"O. c #B6A48C",
"+. c #BBAC8E",
"@. c #BAA391",
"#. c #BFAD9A",
"$. c #AC9DA0",
"%. c #B0A5A1",
"&. c #B6ABA6",
"*. c #B3A7A9",
"=. c #B3ADAF",
"-. c #B8ADA8",
";. c #BFB3A0",
":. c #BDB4AE",
">. c #B4ACB4",
",. c #B2ADBC",
"<. c #BCB6B0",
"1. c #BDB8B2",
"2. c #B6B3BC",
"3. c #BAB7BD",
"4. c #BBB9BC",
"5. c #C5BA88",
"6. c #FFE79A",
"7. c #B6B4C2",
"8. c #B8B6C0",
"9. c #B7BAC3",
"0. c #BABBC2",
"q. c #E1DBDD",
/* pixels */
"1.1.1.1.1.1.1.1.1.1.1.1.1.1.1.1.1.1.1.1.1.1.1.1.1.1.1.1.1.:.:.:.<.<.<.<.:.1.<.<.1.<.<.:.1.1.<.<.<.<.1.1.1.1.1.1.1.1.1.1.",
"1.1.1.1.1.1.1.1.1.1.1.1.1.1.1.1.1.1.1.1.1.1.1.1.1.1.1.:.:.:.1.1.<.<.<.<.<.<.<.1.<.<.<.<.1.1.1.1.<.<.1.1.1.1.1.1.1.1.1.1.",
"1.1.1.1.1.1.1.1.1.1.1.1.1.1.1.1.1.1.1.1.1.1.1.1.1.1.1.1.1.:.:.:.<.<.1.1.<.1.1.1.1.1.<.1.1.1.1.1.<.<.1.1.1.1.1.1.1.1.1.1.",
"1.1.1.1.1.1.1.1.1.1.1.1.1.1.1.1.1.1.1.1.1.1.1.1.1.1.1.1.1.1.1.1.1.1.1.1.1.1.1.1.1.1.1.1.1.1.1.1.<.1.1.1.1.1.1.1.1.1.1.1.",
"1.1.1.1.1.1.1.1.1.1.1.1.1.1.1.1.1.1.1.1.1.1.1.1.1.1.1.1.1.1.1.1.1.1.1.1.1.1.1.1.1.1.1.1.1.1.1.1.1.1.1.1.1.1.1.1.1.1.1.1.",
"1.1.1.1.1.1.1.1.1.1.1.1.1.1.1.1.1.1.1.1.1.1.1.1.1.1.1.1.1.1.1.1.1.1.1.1.1.1.1.1.1.1.1.1.1.1.1.1.1.1.1.1.1.1.1.1.1.1.1.1.",
"1.1.1.1.1.1.1.1.1.1.1.1.1.1.1.1.1.1.1.1.1.1.1.1.1.1.1.1.1.1.1.1.1.1.1.1.1.1.1.1.1.1.1.1.1.1.1.1.1.1.1.1.1.1.1.1.1.1.1.1.",
"1.1.1.1.1.1.1.1.1.1.1.1.1.1.1.1.1.1.1.1.1.1.1.1.1.1.1.1.1.1.1.1.1.1.1.1.1.1.1.1.1.1.1.1.1.1.1.1.1.1.1.1.1.1.1.1.1.1.1.1.",
"1.1.1.1.1.1.1.1.1.1.1.1.1.1.1.1.1.1.1.1.1.1.1.1.1.1.1.1.1.1.1.1.1.1.1.1.1.1.1.1.1.1.1.1.1.1.1.1.1.1.1.1.1.1.1.1.1.1.1.1.",
"1.1.1.1.1.1.1.1.1.1.1.1.1.1.1.1.1.1.1.1.1.1.1.1.1.1.1.1.1.1.1.1.1.1.1.1.1.1.1.1.1.1.1.1.1.1.1.1.1.1.1.1.1.1.1.1.1.1.1.1.",
"1.1.1.1.1.1.1.1.1.1.1.1.1.1.1.1.1.1.1.1.1.1.1.1.1.1.1.1.1.1.1.1.1.1.1.1.1.1.1.1.1.1.1.1.1.1.1.1.1.1.1.1.1.1.1.1.1.1.1.1.",
"1.1.1.1.1.1.1.1.1.1.1.1.1.1.1.1.1.1.1.1.1.1.1.1.1.1.1.1.1.1.1.1.1.1.1.1.1.1.1.1.1.1.1.1.1.1.1.1.1.1.1.1.1.1.1.1.1.1.1.1.",
"1.1.1.1.1.1.1.1.1.1.1.1.1.1.1.1.1.1.1.1.1.1.1.1.1.1.1.1.1.1.1.1.1.1.1.1.1.1.1.1.1.1.1.1.1.1.1.1.1.1.1.1.1.1.1.1.1.1.1.1.",
"1.1.1.1.1.1.1.1.1.1.1.1.1.1.1.1.1.1.1.1.1.1.1.1.1.1.1.1.1.1.1.1.1.1.1.1.1.1.1.1.1.1.1.1.1.1.1.1.1.1.1.1.1.1.1.1.1.1.1.1.",
"1.1.1.1.1.1.1.1.1.1.1.1.1.1.1.1.1.1.1.1.1.1.1.1.1.1.1.1.1.1.1.1.1.1.1.1.1.1.1.1.1.1.1.1.1.1.1.1.1.1.1.1.1.1.1.1.1.1.1.1.",
"1.1.1.1.1.1.1.1.1.1.1.1.1.1.1.1.1.1.1.1.1.1.1.1.1.1.1.1.1.1.1.1.1.1.1.1.1.1.1.1.1.1.1.1.1.1.1.1.1.1.1.1.1.1.1.1.1.1.1.1.",
"1.1.1.1.1.1.1.1.1.1.1.1.1.1.1.1.1.1.1.1.1.1.1.1.1.1.1.1.1.1.1.1.<.1.1.1.1.1.1.1.1.1.1.1.1.1.1.1.1.1.1.1.1.1.1.1.1.1.1.1.",
"1.1.1.1.1.1.1.1.1.1.1.1.1.1.1.1.1.1.1.1.1.1.1.1.1.1.1.3.8.2.2.>.2.8.4.4.1.1.1.1.1.1.1.1.1.1.1.1.1.1.1.1.1.1.1.1.1.1.1.1.",
"1.1.1.1.1.1.1.1.1.1.1.1.1.1.1.1.1.1.1.1.1.1.1.1.1.<.&._ E a T S J p ( -.0.<.1.1.1.1.1.1.1.1.1.1.1.1.1.1.1.1.1.1.1.1.1.1.",
"1.1.1.1.1.1.1.1.1.1.1.1.1.1.1.1.1.1.1.1.1.1.1.1.,.q.6.g j M 6 z 0 b x   u 2.1.1.1.1.1.1.1.1.1.1.1.1.1.1.1.1.1.1.1.1.1.1.",
"1.1.1.1.1.1.1.1.1.1.1.1.1.1.1.1.1.1.1.1.1.1.4.>.t o.Q e I D N G 3 z z 7 % i >.<.1.1.1.1.1.1.1.1.1.1.1.1.1.1.1.1.1.1.1.1.",
"1.1.1.1.1.1.1.1.1.1.1.1.1.1.1.1.1.1.1.1.1.1.7.V k 0 e # . o X o + y e l N c Z ,.1.1.1.1.1.1.1.1.1.1.1.1.1.1.1.1.1.1.1.1.",
"1.1.1.1.1.1.1.1.1.1.1.1.1.1.1.1.1.1.1.1.1.0.` 9 w z X $ q h h h h % : g l l j ] 0.1.1.1.1.1.1.1.1.1.1.1.1.1.1.1.1.1.1.1.",
"1.1.1.1.1.1.1.1.1.1.1.1.1.1.1.1.1.1.1.1.1.@.q e F O 1 q % 2 h k k k 9 > l w f K >.1.1.1.1.<.1.1.1.1.1.1.1.1.1.1.1.1.1.1.",
"1.1.<.<.<.1.1.1.1.1.1.1.1.1.1.1.1.1.1.1.9.i g M 6 1 q : r k k k b k 7 = N l z v 5.1.1.1.1.1.1.1.1.1.1.1.1.1.1.1.1.1.1.1.",
"1.1.<.1.<.1.1.1.1.1.1.1.1.1.1.1.1.1.1.1.$.b z F + h r k k b b b n x K n 6 6 : 5 X.4.1.1.1.1.1.1.1.1.1.1.1.1.1.1.1.1.1.1.",
"1.1.:.<.<.1.1.1.1.1.1.1.1.1.1.1.1.1.<.4./ q N 5 q k k b b n K n K K n K 6 2 e 5 ! 8.1.1.1.1.1.1.1.1.1.1.1.1.1.1.1.1.1.1.",
"1.1.<.1.<.1.1.1.1.1.1.1.1.1.1.1.1.1.<.3. .4 l : k b b n K n n n K K K K 5 A D - Y 8.1.1.1.1.1.1.1.1.1.1.1.1.1.1.1.1.1.1.",
"1.<.<.<.<.<.1.1.1.1.1.1.1.1.1.1.1.1.1.4.) 9 I : n n n K n K K K n K K K d H 7 7 H 7.1.1.1.1.1.1.1.1.1.1.1.1.1.1.1.1.1.1.",
"1.<.<.<.<.<.1.1.1.1.1.1.1.1.1.1.1.1.<.4.` ; m 6 n n K K n n K n K K K K g m 7 f R 8.1.1.1.1.1.1.1.1.1.1.1.1.1.1.1.1.1.1.",
"1.1.<.<.<.1.1.1.1.1.1.1.1.1.1.1.1.1.4.4.{ 4 : : L n K K n K K n n K K n 7 U e g ' 3.1.1.1.1.1.1.1.1.1.1.1.1.1.:.1.1.1.1.",
"1.<.<.<.<.1.<.1.1.1.1.1.1.1.1.1.1.1.1.1.:.h > x M K K K n K K K K K n g C e M h ..3.1.1.1.1.1.1.1.1.1.1.1.1.1.1.1.1.1.1.",
"1.1.<.<.<.1.1.1.1.1.1.1.1.1.1.1.1.1.1.1.0.d l I 6 L K K K K K K K n n 7 M e - W ,.1.1.1.1.1.1.1.1.1.1.1.1.1.1.1.1.1.1.1.",
"1.1.<.<.<.1.1.1.1.1.1.1.1.1.1.1.1.1.1.1.4._ g w P 7 L K K M x K L K 7 x e 3 g | 4.1.1.1.1.1.1.1.1.1.1.1.1.1.1.1.1.1.1.1.",
"1.1.<.<.<.1.1.1.1.1.1.1.1.1.1.1.1.1.1.1.1.<.d j x N 6 n K n L L M 6 x e w > y 8.1.1.1.1.1.1.1.1.1.1.1.1.1.1.1.1.1.1.1.1.",
"1.1.<.<.<.1.1.1.1.1.1.1.1.1.1.1.1.1.1.1.1.4.+.v l 6 v f f f x & @ 3 e w e 8 ,.1.1.1.1.1.1.1.1.1.1.1.1.1.1.1.1.1.1.1.1.1.",
"1.1.<.<.<.<.1.1.1.1.1.1.1.1.1.1.1.1.1.1.1.1.0.~ j 0 C 3 l P l B e e w 3 1 O.4.1.1.1.1.1.1.1.1.1.1.1.1.1.1.1.1.1.1.1.1.1.",
"1.1.<.<.<.<.1.1.1.1.1.1.1.1.1.1.1.1.1.1.1.1.1.0.^ , h x w e l g e > , s =.1.1.1.1.1.1.1.1.1.1.1.1.1.1.1.1.1.1.1.1.1.1.1.",
"1.<.<.1.<.<.1.1.1.1.1.1.1.1.1.1.1.1.1.1.1.1.1.1.4.*.[ > < ; , 8 , * ;.8.1.1.1.1.1.1.1.1.1.1.1.1.1.1.1.1.1.1.1.1.1.1.1.1.",
"1.<.<.<.1.<.1.1.1.1.1.1.1.1.1.1.1.1.1.1.1.1.1.1.1.1.0.=.@...} #.%.9.4.1.1.1.1.1.1.1.1.1.1.1.1.1.1.1.1.1.1.1.1.1.1.1.1.1.",
"1.<.<.<.1.1.<.1.1.1.1.1.1.1.1.1.1.1.1.1.1.1.1.1.1.1.1.1.1.4.4.1.4.1.1.1.1.1.1.1.1.1.1.1.1.1.1.1.1.1.1.1.1.1.1.1.1.1.1.1.",
"1.<.<.<.1.1.1.1.1.1.1.1.1.1.1.1.1.1.1.1.1.1.1.1.1.1.1.1.1.1.1.1.1.1.1.1.1.1.1.1.1.1.1.1.1.1.1.1.1.1.1.1.1.1.1.1.1.1.1.1.",
"1.<.<.<.<.<.<.1.1.1.1.1.1.1.1.1.1.1.1.1.1.1.1.1.1.1.1.1.1.1.1.1.1.1.1.1.1.1.1.1.1.1.1.1.1.1.1.1.1.1.1.1.1.1.1.1.1.1.1.1.",
"<.<.<.1.<.<.<.1.1.1.1.1.1.1.1.1.1.1.1.1.1.1.1.1.1.1.1.1.1.1.1.1.1.1.1.1.1.1.1.1.1.1.1.1.1.1.1.1.1.1.1.1.1.1.1.1.1.1.1.1.",
"1.<.1.1.1.<.<.<.1.1.1.1.1.1.1.1.1.1.1.1.1.1.1.1.1.1.1.1.1.1.1.1.1.1.1.1.1.1.1.1.1.1.1.1.1.1.1.1.1.1.1.1.1.1.1.1.1.1.:.1.",
"1.1.1.1.1.<.<.<.1.1.1.1.1.1.1.1.1.1.1.1.1.1.1.1.1.1.1.1.1.1.1.1.1.1.1.1.1.1.1.1.1.1.1.1.1.1.1.1.1.1.1.1.1.1.1.1.1.1.1.1.",
"1.1.1.1.1.<.1.1.1.1.1.1.1.1.1.1.1.1.1.1.1.1.1.1.1.1.1.1.1.1.1.1.1.1.1.1.1.1.1.1.1.1.1.1.1.1.1.1.1.1.1.1.1.1.1.1.1.1.:.1.",
"<.1.1.1.1.1.1.1.1.1.1.1.1.1.1.1.1.1.1.1.1.1.1.1.1.1.1.1.1.1.1.1.1.1.1.1.1.1.1.1.1.1.1.1.1.1.1.1.1.1.1.1.1.1.1.1.1.1.1.1.",
"1.1.1.1.1.1.1.1.1.1.1.1.1.1.1.1.1.1.1.1.1.1.1.1.1.1.1.1.1.1.1.1.1.1.1.1.1.1.1.1.1.1.1.1.1.1.1.1.1.1.1.1.1.1.1.1.1.1.1.1.",
"1.1.1.1.1.1.1.1.1.1.1.1.1.1.1.1.1.1.1.1.1.1.1.1.1.1.1.1.1.1.1.1.1.1.1.1.1.1.1.1.1.1.1.1.1.1.1.1.1.1.1.1.1.1.1.1.1.1.1.1.",
"1.1.1.1.1.1.1.1.1.1.1.1.1.1.1.1.1.1.1.1.1.1.1.1.1.1.1.1.1.1.1.1.1.1.1.1.1.1.1.1.1.1.1.1.1.1.1.1.1.1.1.1.1.1.1.1.1.1.1.1.",
"1.1.1.1.1.1.1.1.1.1.1.1.1.1.1.1.1.1.1.1.1.1.1.1.1.1.1.1.1.1.1.1.1.1.1.1.1.1.1.1.1.1.1.1.1.1.1.1.1.1.1.1.1.1.1.1.1.1.1.1.",
"1.1.1.1.1.1.1.1.1.1.1.1.1.1.1.1.1.1.1.1.1.1.1.1.1.1.1.1.1.1.1.1.1.1.1.1.1.1.1.1.1.1.1.1.1.1.1.1.1.1.1.1.1.1.1.1.1.1.1.1.",
"1.1.1.1.1.1.1.1.1.1.1.1.1.1.1.1.1.1.1.1.1.1.1.1.1.<.1.1.1.1.1.1.1.1.1.1.1.1.1.1.1.1.1.1.1.1.1.1.1.1.1.1.1.1.1.1.1.1.1.1.",
"1.1.1.1.1.1.1.1.1.1.1.1.1.1.1.1.1.1.1.1.1.1.1.1.1.<.1.1.1.1.1.1.1.1.1.1.1.1.1.1.1.1.1.1.1.1.1.1.1.1.1.1.1.1.1.1.1.1.1.1.",
"1.1.1.1.1.1.1.1.1.1.1.1.1.1.1.1.1.1.1.1.1.1.1.1.<.<.1.<.1.<.1.<.1.1.1.1.1.1.1.1.1.1.1.1.1.1.1.1.1.1.1.1.1.1.1.1.1.1.1.1.",
"1.1.1.1.1.1.1.1.1.1.1.1.1.1.1.1.1.1.1.1.1.1.1.;.1.1.<.<.<.<.<.<.1.1.1.1.1.1.1.1.1.1.1.1.1.1.1.1.1.1.1.1.1.1.1.1.1.1.1.1.",
"1.1.1.1.1.1.1.1.1.1.1.1.1.1.1.1.1.1.1.1.1.1.1.1.1.<.<.<.<.<.<.<.1.1.1.1.1.1.1.1.1.1.1.1.1.1.1.1.1.1.1.1.1.1.1.1.1.1.1.1.",
"1.1.1.1.1.1.1.1.1.1.1.1.1.1.1.1.1.1.1.1.1.1.1.1.1.1.<.<.<.<.<.<.:.1.1.1.1.1.1.1.1.1.1.1.1.1.1.1.1.1.1.1.1.1.1.1.1.1.1.1.",
"1.1.1.1.1.1.1.1.1.1.1.1.1.1.1.1.1.1.1.1.1.1.1.1.1.1.1.;.1.<.<.1.:.1.1.1.1.1.1.1.1.1.1.1.1.1.1.1.1.1.1.1.1.1.1.1.1.1.1.1."
};
