/* XPM */
static char *exit_7___copia1732189148[] = {
/* columns rows colors chars-per-pixel */
"60 60 247 2 ",
"   c #12152E",
".  c #161435",
"X  c #1C1B35",
"o  c #1D1C3B",
"O  c #201D39",
"+  c #1E233B",
"@  c #252439",
"#  c #25233D",
"$  c #1E1B40",
"%  c #2B094E",
"&  c #242543",
"*  c #292745",
"=  c #272847",
"-  c #292A44",
";  c #2B2C4B",
":  c #302D4A",
">  c #2C314F",
",  c #34354C",
"<  c #2B2D53",
"1  c #332D54",
"2  c #333353",
"3  c #373758",
"4  c #3B355B",
"5  c #3C3B5D",
"6  c #3C3C63",
"7  c #413C5B",
"8  c #48076C",
"9  c #4B0476",
"0  c #560679",
"q  c #581977",
"w  c #443E68",
"e  c #513578",
"r  c #612E77",
"t  c #3E4262",
"y  c #47475A",
"u  c #504F59",
"i  c #474468",
"p  c #4C4A6C",
"a  c #51496E",
"s  c #4D516A",
"d  c #585769",
"f  c #4C4472",
"g  c #4B4C74",
"h  c #4D4A7A",
"j  c #544575",
"k  c #524B75",
"l  c #54457A",
"z  c #544D7C",
"x  c #5A4D7D",
"c  c #4E5277",
"v  c #545474",
"b  c #5B5574",
"n  c #54547B",
"m  c #5B537C",
"M  c #5B5A78",
"N  c #625E6F",
"B  c #61597C",
"V  c #696972",
"C  c #686778",
"Z  c #706D79",
"A  c #5B0887",
"S  c #5C0A85",
"D  c #5E1684",
"F  c #660B88",
"G  c #630C8B",
"H  c #661789",
"J  c #65138D",
"K  c #680A96",
"L  c #720E9C",
"P  c #6A1796",
"I  c #6C1494",
"U  c #731497",
"Y  c #73149D",
"T  c #741A9D",
"R  c #6B2888",
"E  c #71338F",
"W  c #772997",
"Q  c #7A16A6",
"!  c #7C1BA4",
"~  c #7D26A5",
"^  c #7D33A6",
"/  c #5C4683",
"(  c #554C81",
")  c #5B4D82",
"_  c #5E4F8B",
"`  c #5B5282",
"'  c #5A5786",
"]  c #515088",
"[  c #634C85",
"{  c #644C8B",
"}  c #6A4D8D",
"|  c #79458F",
" . c #625184",
".. c #63528C",
"X. c #67588C",
"o. c #6C4C91",
"O. c #6B5592",
"+. c #665A96",
"@. c #725A94",
"#. c #765599",
"$. c #755D9B",
"%. c #7B5B9D",
"&. c #5D658D",
"*. c #6A6985",
"=. c #746C8A",
"-. c #6E7082",
";. c #787788",
":. c #68659A",
">. c #75629C",
",. c #7C639D",
"<. c #786A99",
"1. c #7F7C91",
"2. c #6A5CA2",
"3. c #7D5DA2",
"4. c #7B5BA5",
"5. c #6565A4",
"6. c #7766A6",
"7. c #821AAA",
"8. c #891AB4",
"9. c #9417BB",
"0. c #8627AB",
"q. c #8322AD",
"w. c #893BAA",
"e. c #8522B1",
"r. c #8B24B5",
"t. c #9624BB",
"y. c #8E37B7",
"u. c #9338B9",
"i. c #82439C",
"p. c #89589D",
"a. c #837F9F",
"s. c #8B4AA8",
"d. c #8758A6",
"f. c #955AAA",
"g. c #954FB3",
"h. c #A351BE",
"j. c #8264A3",
"k. c #8866AB",
"l. c #9768AA",
"z. c #8C6CB5",
"x. c #9866B6",
"c. c #9876BB",
"v. c #A668BA",
"b. c #A77AB9",
"n. c #B17ABF",
"m. c #9D06C5",
"M. c #9B16C6",
"N. c #A519C9",
"B. c #AD18D2",
"V. c #9B2EC2",
"C. c #A526C9",
"Z. c #A637CA",
"A. c #AD27D4",
"S. c #B528D7",
"D. c #B839DA",
"F. c #BD38E4",
"G. c #C139E7",
"H. c #9D48C1",
"J. c #A849C9",
"K. c #A655C7",
"L. c #B555D0",
"P. c #AB6AC5",
"I. c #B46BC6",
"U. c #B376C9",
"Y. c #BD47E1",
"T. c #BC5AE4",
"R. c #BC65E1",
"E. c #C14ADF",
"W. c #C46ED7",
"Q. c #C776D9",
"!. c #C35AEA",
"~. c #CD4CF0",
"^. c #CD54F5",
"/. c #C564EC",
"(. c #D077E8",
"). c #CC64F4",
"_. c #D768FD",
"`. c #898797",
"'. c #928E99",
"]. c #98969B",
"[. c #9A97A4",
"{. c #948CB0",
"}. c #A29DA9",
"|. c #AB85B7",
" X c #B389B9",
".X c #AB95B6",
"XX c #B597BC",
"oX c #A9A6A8",
"OX c #B1ADAD",
"+X c #B9B6AE",
"@X c #BAB7AE",
"#X c #ABA9B4",
"$X c #B4ABB7",
"%X c #B7B4B7",
"&X c #BCB7B1",
"*X c #BDB8B2",
"=X c #BDBABA",
"-X c #C2BDB5",
";X c #C3BDBA",
":X c #C8BCBE",
">X c #BEC1AE",
",X c #C6C0B6",
"<X c #C6C1BA",
"1X c #C9C4BC",
"2X c #CEC9BE",
"3X c #BB87C7",
"4X c #AD92C4",
"5X c #BB97C5",
"6X c #BAA1CE",
"7X c #C499CA",
"8X c #CB8BD7",
"9X c #CB8AD8",
"0X c #CA98D5",
"qX c #D396DC",
"wX c #CBA9CB",
"eX c #C8B9C4",
"rX c #D2BACB",
"tX c #CBA5D7",
"yX c #D6ABD9",
"uX c #CAB0D2",
"iX c #D6B7D6",
"pX c #DAB4DC",
"aX c #DDBCDC",
"sX c #E0B8DE",
"dX c #D388E0",
"fX c #D995E8",
"gX c #E195ED",
"hX c #D8A6E2",
"jX c #DDB9E3",
"kX c #E3A9E8",
"lX c #E3BCE2",
"zX c #CCC5C2",
"xX c #CBC7C4",
"cX c #D2C7C9",
"vX c #D6D1CB",
"bX c #DAC7D4",
"nX c #E0CED5",
"mX c #E2C4DC",
"MX c #E6CADE",
"NX c #E5D9D6",
"BX c #DEC0E3",
"VX c #E5C3E2",
"CX c #EAC7E7",
"ZX c #EBCCE5",
"AX c #EDD2E6",
"SX c #F4D8E9",
"DX c #F7CFF2",
/* pixels */
"*X*X*X*X*X*X*X*X*X*X*X*X*X*X*X*X*X*X*X*X*X*X*X*X*X*X*X*X&X*X*X*X*X*X*X*X*X*X*X*X*X*X*X*X*X*X*X*X*X*X*X*X*X*X*X*X*X*X*X*X",
"*X*X*X*X*X*X*X*X*X*X*X*X*X*X*X*X*X*X*X*X*X*X*X*X*X*X*X*X*X*X*X*X*X*X*X*X*X*X*X*X*X*X*X*X*X*X*X*X*X*X*X*X*X*X*X*X*X*X*X&X",
"*X*X*X*X*X*X*X*X*X*X*X*X&X*X*X*X*X*X*X*X*X*X&X*X*X*X*X*X*X*X*X*X*X*X*X*X*X*X*X*X*X*X*X*X*X*X*X*X*X*X*X*X*X*X*X*X*X*X*X*X",
"*X*X*X*X*X*X*X*X*X*X*X*X*X*X*X*X*X*X*X*X*X*X*X*X*X*X*X*X*X*X*X*X*X*X*X*X*X*X*X*X*X*X*X*X*X*X*X*X*X*X*X*X*X*X*X*X*X*X*X*X",
"*X*X*X*X*X*X*X*X*X*X*X*X*X*X*X*X*X*X*X*X*X*X*X*X*X*X*X*X*X*X*X*X*X*X+X*X*X*X*X*X*X*X*X*X*X*X*X*X*X*X*X*X*X*X*X*X*X*X*X*X",
"*X*X*X*X*X*X*X*X*X*X*X*X*X*X*X*X&X*X*X*X*X*X*X*X*X*X*X*X*X*X*X*X*X*X*X*X*X*X*X*X*X*X*X*X*X*X*X*X*X*X*X*X*X*X*X*X*X*X*X*X",
"*X*X*X*X*X*X*X*X&X*X*X*X*X*X*X*X*X*X*X*X*X*X*X*X*X*X*X*X*X*X*X*X*X*X*X*X*X*X*X*X*X*X*X*X*X*X*X*X*X*X*X*X*X*X*X*X*X&X*X*X",
"*X*X*X*X*X*X*X*X*X*X*X*X*X*X*X*X*X*X*X*X*X*X*X*X*X*X*X*X&X*X*X*X*X*X*X*X*X*X*X*X*X*X*X*X*X*X*X*X*X*X*X*X*X*X*X*X*X*X*X*X",
"*X*X*X*X&X*X*X*X*X*X*X*X*X*X*X*X*X*X*X*X*X*X*X*X*X*X*X*X-X1X;X-X*X*X*X*X*X*X*X*X*X*X*X*X*X*X*X*X*X*X*X*X*X*X*X*X*X*X*X*X",
"*X*X*X*X*X*X*X*X*X*X*X*X*X*X*X*X*X*X*X*X*X*X*X*X*X*X*X,X].M i }.2X*X*X*X*X*X*X*X*X*X*X*X*X*X*X*X*X*X*X*X&X*X*X*X*X*X*X*X",
"*X*X*X*X*X*X*X*X*X*X*X*X*X&X*X*X*X*X*X*X*X*X*X*X*X*X-X}.f ` k O V ,X*X*X*X*X*X*X*X*X*X*X*X*X*X*X*X*X*X*X*X*X*X*X*X*X*X*X",
"*X*X*X*X*X*X*X*X*X*X*X*X*X*X*X*X*X*X*X*X*X*X*X*X%X*X:Xb X.x x 7 X N 1X*X*X*X*X*X*X*X*X*X*X*X*X*X*X*X*X*X*X*X*X*X*X*X*X*X",
"*X*X*X*X*X*X*X*X*X*X*X*X*X*X*X*X*X*X*X*X*X*X*X*X*X,X`.} x k m v - @ +X*X*X*X*X*X*X*X*X*X*X*X*X*X*X*X*X*X*X*X*X*X&X*X*X*X",
"*X*X*X*X*X*X*X*X*X*X*X*X*X*X*X*X*X*X*X*X*X*X*X@X-X=Xe #.{ ..>.X.4 X Z ,X@X*X*X*X*X*X*X*X*X*X*X*X*X*X*X*X*X&X*X*X*X*X*X*X",
"*X*X*X&X*X*X*X*X*X*X&X*X*X*X*X*X*X*X*X*X*X*X*X*X,XZ #.3.6.( ] n i # N <X*X*X*X*X*X*X*X*X*X*X-X-X*X&X*X*X*X*X*X*X*X*X*X*X",
"*X*X*X*X*X*X*X*X*X*X*X*X*X*X*X*X*X*X-X1X<X,X*X*X<XM k %.p...z v , X '.-X*X*X*X*X*X*X*X*X*X;Xs #X-X*X*X*X*X*X*X*X*X*X*X*X",
"*X*X*X&X*X*X*X*X*X*X*X*X*X*X*X*X&X-X`.y d '.;X-X,XB ( $._ 4.%.g - # ;X-X-X-X*X*X*X*X*X*X=Xv g p 1X*X*X*X*X*X*X*X*X*X*X*X",
"*X*X*X*X*X*X*X*X*X*X*X*X*X*X*X*X&X,X1.g n : @ oX1XM { 4.{ 4.O.w # d ,X-XoX[.,X*X@X*X*X-Xc h  .` B <X*X*X*X*X*X*X*X*X*X*X",
"*X*X*X*X*X*X*X*X*X*X*X*X*X*X*X*X&X<X=.g m m : @ NXb %.d.z.) z 1 o ].;X;X;.i }.-X*X*X<XM c ( d.j.: OX*X*X*X*X*X*X*X*X*X*X",
"*X*X*X*X*X*X*X*X*X*X*X*X*X*X*X*X*X<X*.h j.%.a X ;.*.m o.%.` g * # ;X-X-Xl j.w ].-X<Xb g z n >.@.* Z ;X*X*X*X*X*X*X*X*X*X",
"*X*X*X*X*X*X*X*X*X*X*X*X*X*X*X*X*X<X*.) 3.%.B 3 + c n @.z.m w # d 1X-X'.O.d.g , vXm ..l ..( g a @ N <X-X*X*X*X*X*X*X*X*X",
"*X*X*X*X*X*X*X*X*X*X&X&X*X&X*X*X*X<XM +./ [ %.k ; > n ( ,.k : O ].-X<XB #.,.7 & x 6./ %.c...` i X `.-X*X*X*X*X*X*X*X*X*X",
"*X*X*X*X*X*X*X*X*X*X*X*X&X*X*X*X*X<XC h +.X.$. .& ;.n c m p - @ ;X-X@XX.4.+.- 3 m O.O.%.{ m n 2 O $X-X*X*X*X*X*X*X*X*X*X",
"*X&X*X*X*X*X*X*X*X*X*X*X*X*X*X*X*X*X%Xi  .k.#.x o OX{.] n 3 X V ;X-XOX[ #.f & =.k ( j.k m n i - # ;X*X*X*X*X*X*X*X*X*X*X",
"*X*X*X*X*X&X*X*X*X*X*X*X*X*X*X*X*X*X,X`.z 3.b.[ & <X;X2.' $ d <X*X<X=Xh ' ; d `.k %.` c v 5 = & u 2X*X*X*X*X*X*X*X*X*X*X",
"*X*X*X*X*X*X*X*X*X*X*X*X*X-X;X*X*X@X@X1Xv f _ z n 1X*XiX<.b xXcXVX3XBX6.+.5 vX' j.z.` s > = < 5 ;X1X*X*X*X*X*X*X*X*X*X*X",
"*X*X*X*X*X*X*X*X*X*X*X-X,X].'.1X*X*XzX6X6Xl +.6.eXrXeXbXVXyXrX5Xw.K jXjX6X;X;X] ( ) 5 ; - t n z k w %X*X*X*X*X*X*X*X*X*X",
"*X*X*X*X*X*X*X<X1X<X,X-Xi w $ Z 1X>XP.I w.jXsXlXVXVXcXMXU.I y.0.J P E |.AX-X$X2.&.; @ & t x @.#.' & OX-X*X*X*X*X*X*X*X*X",
"*X*X*X*X*X*X@Xy y d Z =.O.k.w   oXvX0.Q s.SXb.x d.z.d.R H 0.).R.F D P p.| aXiX|.+.. + t m %.z.j.f . OX-X*X*X&X*X*X*X*X*X",
"*X*X*X*X*X<X=.l k 2 # 3 +.6.+.c {.;XK v.bXr E uXP.A K Y ~ ! 7.R.T ! P 3XaX|.x. XhX#X;.' O.k.j * o OX;X*X*X*X*X&X*X*X*X*X",
"*X*X@X@X,X6Xf +.X.) k > = w ` :.{.:XK.SXE l.ZXjX8 J P ~ ~ ! r.R.I F T U F XXiXr q SXeXf x $ , Z ;X-X@X@X@X-X;X-X*X*X*X*X",
"*X*X@X>X,X`.` 4.3. . .` w ; ; 1 ;X;XVXwX#.SXBXZX0XD Q V.M.Z./.Z.0.F T e.8.K yXSXl.p.AX$Xd '.2X<X*X*X-X,XzX}.*.`.-X*X*X*X",
"*X*X*X*X<X-.z +.{ { k.l $.>.5 - 2 bXBXc.AXi.q W ZXh.Q 9.D.~.r.7XdXh.7.7.Q w.ZXx.ZXq s.0XnXeX-X@X-X:X%X`.p w X.f Z ,X*X*X",
"*X*X*X*X*X,Xb f z ) j.>.k.4.f :.6.jXbXs.3X0 H T I.lXqXfXE.N.E.qXn.kXkXyXaXCXh.I 3X3X0 L f.1X-X<X}.*.f ( ..4.k.i $X*X*X*X",
"*X*X*X*X*X*X<X].-.s f l O.6.@.+.5.jX0Xx.E I 0.7.8.Z.9XhXyXD.E.(.S.L.NXt.t.Y L 7.v.aX0 W hXeX`.[ ( { p.k.4.k.l M 1X*X*X*X",
"*X*X*X>X<XxX,X<X,X<XOX'.*.l _ +.c.jXCXg.F I 7.r.t.N.A.C.qXsX8XiXD.F.A.G.9.J K F yXaXi.DX5Xl n X.X...>.j.j.[ # *X*X*X*X*X",
"*X*X-XoX3 y Z oXzXxX,X-X-X:X}.}.:XbXtXd.0 P q.! U 9.B.B.Q.ZXsXmXyXD.S.~.9.0 0 r AXVXD ZX6.5.6 6 2 4 5 3 2 O C 1X*X*X*X*X",
"*X*X1X` n 2 @ + @ s ].bX1X-X-X-XeXrXP ^ W 0 T T y.7.N.B.Q.hX).).sXQ.S.D.dXn.n.ZXs.|.k.ZXuX6.+ = > , y 5 u s 1X*X*X*X*X*X",
"*X-X[.k X.M 2 = * * O @ d ].cX<XbX7XA ^ L.g.J.0.R.K t.9.pX)._.).dXqXS.yXW.f.l.i.A |  Xi.g.AX<XxXcXxX,XzX1X1X*X&X*X*X*X*X",
"*X<Xs m X.c c g i 2 * * @ X # d [.CX0XpXH.!.0.K.R.J I 7X(.^._.fXqXqXE.dX9.7.0 U Q A MXH v.s.U.zX@X*X*X&X*X*X&X*X*X*X*X*X",
"*X-X}.j #.) [  .( ` O.x 4 ; * & o < jXbX9 A J A W P G I.!.^._.mX(.lXdXQ.dX9.F Y V.Q 9 E 7XK s.zX,X-X-X-X*X-X@X*X*X*X*X*X",
"*X*X1X=.>.>.x.x.6.$.f.x.} B k w g :.yX XP.A J P ! U G T._.~.^.yX(._.~.Q.9XM.r.7.Q Q I s.s.9XSX.Xn <.{.'.}.%X<X*X*X*X*X*X",
"*X*X*X*Xi g ) [ / p.#.z.%.@. .z :.5.tX|.iXs.G 7.Q e.N.~._.W.qXmXdX^.D.qXW.m.yXK.fXtXK.U.pXjX6.( +._ #./ l t '.-X*X*X*X*X",
"*X*X*X;X'.p k n z @.` h @.l n v :.6.4X7XuXlXs.U.hXt.N.qXlXiXU.iXbXqXqXZXA.B.D.VX5XL.XXf.MX6X2.+.g.x.x.c.' < [.-X*X*X*X*X",
"*X*X*X*X;X1.C p 5 : & & * 2 < 6 g 4 uXpX5XmXMXVX0XQ.L.ZXZ.Y.D.Z.(.gXmXyXM.M.9.r.Q q.W yXeX,X{.' o.[ [ f i   +X*X*X*X*X*X",
"*X*X*X*X*X;X;X1XxX1XzX#Xp n ) ) i ' jXpXE ZXiXH Q C.kXQ.9.C.D.B.N.N.W.rXK Y I q.q.H U.nX*X*X<XOX`.`.Z M u ].;X*X*X*X*X*X",
"*X*X*X*X*X*X*X@X*X;X-.l O...z.d.z &.%.ZX% l.v.A 7.8.r.q.V.K 7.M.N.m.L.AXE A I q.Q 8 7XaX=X-X<X1X1X1X2X,X<X;X*X*X*X*X*X*X",
"*X*X*X*X*X*X*X-X*X<Xm @.j.j.$.} @.:.6.mX7Xd.D H P e.8.! g.K.V.! 9.N.7.7XAXs.U K x.8 uXc.l k m *.=.`.'.;X*X+X*X*X*X*X*X*X",
"*X*X*X*X*X*X*X*X@X;Xa.f x z n h w 3 < %XpXBXaX8 J ! e.e.T T !.Q t.t.! 0 uXMXyXpXuX% aX>.O.,.} 4.%.>.> [.&X-X&X&X*X*X*X*X",
"*X*X*X*X*X*X*X*X*X*X-XzXy > > < 3 p M 5.5.P.AXc.8 H T 0.I U /.Q 0.I J I g.sXmXwX8 l.nX'.1 ) #.j.| X.= Z ,X&X*X*X*X*X*X*X",
"*X*X*X*X*X*X*X*X@X*X@X1XN 3 f ,.%.m c h e XXMXw.9 P I A F T./.! 7.7.e.7.s.ZX3Xi.VXCX4X#Xg < 3 ( >.z X OX*X*X*X*X*X*X*X*X",
"*X*X*X*X*X*X*X*X-X@X-XOXz #.} j.>.n < O .XpXQ 7.~ 9 T g.(./.G Q e.7.T F 7XrXl.MXaX6X+.+.{ ` w < 6 2 y 1X*X*X*X*X*X*X*X*X",
"*X&X*X*X*X*X*X*X*X*X-X#X_ x.#.x p & , iXv.T Q Q r.q.T A u.K.J I U G H s.v.h.P.bXlX6.:._ 6.d.#.z 4 y OX*X*X*X*X*X*X*X*X*X",
"*X*X*X*X*X*X*X*X*X*X@X;Xz ,. .i   v vXXXs.v.v.s.T Y Y P.l.R 8 8 H E E s.H.! L 3XVX{.< n m %.4.6.i OX;X&X*X*X*X*X*X*X*X*X",
"*X*X*X*X*X*X*X*X*X*X-X<Xw f 7 X `.vX@X:XcXzX:XbXjX XXXVXMXMXiXaXVXfXg.~ ^ w.^ 5XcX2Xd   3 k ` ` & Z <X&X*X*X*X*X*X*X*X*X",
"*X*X*X*X*X*X*X*X*X*X@X;X].N , oX<X@X*X&X*X&X*X&XzX;X*XeX:X@X*X@X*X%XXXrXlXbXcXeX@X*X1XoXy . & + y <X*X*X*X*X*X*X*X*X*X*X",
"*X*X*X*X*X*X*X*X*X*X*X*X-X;XzX*X&X*X*X*X*X*X*X&X@X&X*X@X&X*X&X&X*X*X>X&X&X+X+X&X*X*X*X,X2XoXC d <X*X*X*X*X*X*X*X*X*X*X*X",
"*X*X*X*X*X*X*X*X*X*X*X*X*X*X*X*X*X*X*X*X*X*X*X*X*X*X*X*X*X*X*X*X*X*X&X&X*X*X*X*X*X*X&X&X*X*X<X<X*X*X*X*X*X*X*X*X*X*X*X*X",
"*X*X*X*X*X&X*X*X*X*X*X*X&X*X*X*X*X*X*X*X*X*X*X*X*X*X*X*X*X*X*X*X*X*X*X*X*X*X*X*X*X*X&X&X*X*X&X&X*X*X*X*X*X*X*X*X*X*X*X*X",
"*X*X*X*X*X*X*X*X*X*X*X*X*X*X*X*X*X*X*X*X*X*X*X*X*X*X*X*X*X*X*X*X&X*X*X*X*X*X*X*X*X*X*X*X*X*X*X*X*X*X*X*X*X*X*X*X*X*X*X*X"
};
