/* XPM */
static char *exit_5___copia1732186437[] = {
/* columns rows colors chars-per-pixel */
"60 60 237 2 ",
"   c #1C1C34",
".  c #1D1B38",
"X  c #1F213A",
"o  c #25243B",
"O  c #27273A",
"+  c #2D1D48",
"@  c #252442",
"#  c #2B2645",
"$  c #262A44",
"%  c #2C2C45",
"&  c #2C244A",
"*  c #2C2C4A",
"=  c #312D46",
"-  c #32244B",
";  c #312D4B",
":  c #323249",
">  c #2E2C53",
",  c #332352",
"<  c #392C58",
"1  c #2E3050",
"2  c #343352",
"3  c #35345B",
"4  c #39365B",
"5  c #3B3B5D",
"6  c #3E1B68",
"7  c #3B2861",
"8  c #3D3863",
"9  c #40285E",
"0  c #403E58",
"q  c #46076A",
"w  c #4A0A6D",
"e  c #4D0574",
"r  c #470870",
"t  c #4E0A73",
"y  c #53047B",
"u  c #550A79",
"i  c #540B7A",
"p  c #58127E",
"a  c #462B69",
"s  c #423C65",
"d  c #453768",
"f  c #502A79",
"g  c #4C3872",
"h  c #543878",
"j  c #543D7B",
"k  c #3C415C",
"l  c #464554",
"z  c #484A57",
"x  c #444364",
"c  c #45446C",
"v  c #484768",
"b  c #4A466D",
"n  c #4B4A6D",
"m  c #56556B",
"M  c #4B4672",
"N  c #4D4C74",
"B  c #4E4D7B",
"V  c #514D75",
"C  c #56457A",
"Z  c #544E7B",
"A  c #5A4B7D",
"S  c #4F5375",
"D  c #4F537B",
"F  c #525276",
"G  c #5A5875",
"H  c #53537B",
"J  c #59557D",
"K  c #62557C",
"L  c #65647D",
"P  c #75747E",
"I  c #5C0783",
"U  c #5D0C84",
"Y  c #5A1286",
"T  c #640B89",
"R  c #620C8B",
"E  c #64118B",
"W  c #641789",
"Q  c #6A0894",
"!  c #6A0B94",
"~  c #71099B",
"^  c #6B1297",
"/  c #6C1394",
"(  c #741599",
")  c #74159C",
"_  c #731B9C",
"`  c #5B2D84",
"'  c #672F8D",
"]  c #780DA3",
"[  c #7614A2",
"{  c #7A13A4",
"}  c #751AA1",
"|  c #7B1BA4",
" . c #7D14A9",
".. c #7E1AAA",
"X. c #7C22A4",
"o. c #5B4583",
"O. c #544C82",
"+. c #5B4B82",
"@. c #5B4A87",
"#. c #555382",
"$. c #5B5283",
"%. c #5A5885",
"&. c #5A5690",
"*. c #634A88",
"=. c #654C8B",
"-. c #63548B",
";. c #645689",
":. c #69598E",
">. c #6C4995",
",. c #704D99",
"<. c #6A5695",
"1. c #745998",
"2. c #676682",
"3. c #79778A",
"4. c #696296",
"5. c #7A7895",
"6. c #7A47A5",
"7. c #795AA6",
"8. c #6D69A4",
"9. c #7766A5",
"0. c #7A74AB",
"q. c #7D79B3",
"w. c #8416AC",
"e. c #831DAD",
"r. c #851CB1",
"t. c #8918B7",
"y. c #8B1DB5",
"u. c #931EBD",
"i. c #8323AB",
"p. c #8728AD",
"a. c #8B22B3",
"s. c #8927B6",
"d. c #8D24BC",
"f. c #9224BD",
"g. c #922ABD",
"h. c #8835B4",
"j. c #9335BB",
"k. c #8658AE",
"l. c #8D54B8",
"z. c #8468AC",
"x. c #8769B5",
"c. c #8B71B4",
"v. c #8878BA",
"b. c #8D1FC0",
"n. c #951BC4",
"m. c #9A1CC4",
"M. c #9522C2",
"N. c #9A23C5",
"B. c #952AC0",
"V. c #992CC5",
"C. c #9A25CA",
"Z. c #9C2CCA",
"A. c #9A35C5",
"S. c #9E33CA",
"D. c #A12ACC",
"F. c #A134CC",
"G. c #A33ECF",
"H. c #A52DD5",
"J. c #A633D2",
"K. c #A736D4",
"L. c #AA3BD5",
"P. c #AC34DB",
"I. c #AD3CDB",
"U. c #B035D9",
"Y. c #B33CDE",
"T. c #B53BE2",
"R. c #8E5AC1",
"E. c #9655C3",
"W. c #A55BC9",
"Q. c #AC43D9",
"!. c #B243DD",
"~. c #B14ADC",
"^. c #AC5AD6",
"/. c #B054D6",
"(. c #9A6CCA",
"). c #8D75C3",
"_. c #8B7AC2",
"`. c #9477C8",
"'. c #9F76D0",
"]. c #A568CD",
"[. c #AD70D5",
"{. c #B343E2",
"}. c #BA44E5",
"|. c #B54BE3",
" X c #BA4AE5",
".X c #BC45E9",
"XX c #BC4DEB",
"oX c #BC56E9",
"OX c #BB67E8",
"+X c #C24DEC",
"@X c #C253ED",
"#X c #C558E9",
"$X c #C45AEF",
"%X c #C44CF1",
"&X c #C553F3",
"*X c #C55BF3",
"=X c #CB5AF5",
"-X c #C955F8",
";X c #CD5CFB",
":X c #D25DFD",
">X c #C56AEC",
",X c #CD61FC",
"<X c #CB6CF8",
"1X c #D363FF",
"2X c #D965FF",
"3X c #D569FF",
"4X c #D969FF",
"5X c #86848B",
"6X c #8B8A97",
"7X c #918E93",
"8X c #98959A",
"9X c #8E8AA2",
"0X c #9998A4",
"qX c #8781B9",
"wX c #B09AB3",
"eX c #A7A4A9",
"rX c #B4B0AE",
"tX c #BCBCAE",
"yX c #B1ABB0",
"uX c #BCB7B1",
"iX c #BDB8B2",
"pX c #B7B4B9",
"aX c #BCB9BB",
"sX c #C2BDB5",
"dX c #C2BDBA",
"fX c #BEC0AE",
"gX c #C5C0B6",
"hX c #C5C1BA",
"jX c #CAC4BC",
"kX c #CEC8BD",
"lX c #8A84C5",
"zX c #B88DC8",
"xX c #C797D2",
"cX c #C4B6C5",
"vX c #CAA8D3",
"bX c #CC8DE5",
"nX c #CBC7C3",
/* pixels */
"iXiXiXiXiXiXiXiXiXiXiXiXiXiXiXiXiXiXiXiXiXiXiXiXiXiXiXiXiXiXiXiXiXiXiXiXiXiXiXiXiXiXiXiXiXiXiXiXiXiXiXiXiXiXiXiXuXiXiXiX",
"iXiXiXiXiXiXiXiXiXiXiXiXiXiXiXiXiXiXiXiXiXiXiXiXiXiXiXiXiXiXiXiXiXiXiXiXiXiXiXiXiXiXiXiXiXiXiXiXiXiXiXiXiXiXiXuXiXuXiXiX",
"iXiXiXiXiXiXiXiXiXiXiXiXiXiXiXiXiXiXiXiXiXiXiXiXiXiXiXiXiXiXiXiXiXiXiXiXiXiXiXiXiXiXiXiXiXiXiXiXiXiXuXiXiXiXiXiXiXiXiXiX",
"iXiXiXiXiXiXiXiXiXiXiXiXiXiXiXiXiXiXiXiXiXiXiXiXiXiXiXiXuXuXuXuXiXiXiXiXiXiXiXiXiXiXiXiXiXiXiXiXiXiXiXiXiXiXiXiXiXiXiXiX",
"iXiXiXiXiXiXiXiXiXiXiXiXiXiXiXiXiXiXiXiXiXiXuXtXtXiXiXgXsXgXjXnXgXsXiXiXiXuXsXtXiXiXiXiXiXiXiXiXiXiXiXiXiXiXuXuXiXiXiXiX",
"iXiXiXiXiXiXiXiXiXiXiXiXiXiXiXiXiXiXiXiXiXiXsXgXgXpXrX0X3.3.9Xm 3.eXgXsXiXuXuXuXiXiXiXiXiXiXiXiXiXiXiXsXiXiXuXuXiXiXiXiX",
"iXiXiXiXiXiXiXiXiXiXiXiXiXiXiXiXiXiXiXiXuXsXaX3.2.N c M N N 5 * N v L 0XuXdXuXuXiXiXiXiXiXiXiXiXiXiXuXuXuXuXuXuXiXiXiXiX",
"iXiXiXiXiXiXiXiXiXiXiXiXiXiXiXiXiXiXiXiXiXeXc M B H D H S D J 5 b H Z M x 5.sXuXiXiXiXiXiXiXiXiXuXiXuXuXsXuXuXsXiXiXiXiX",
"iXiXiXiXiXiXiXiXiXiXiXiXiXiXiXiXsXuXuXuXsX6XM N H H H D H H H 5 x J D H V x eXsXiXiXuXiXiXiXiXiXiXiXiXiXiXiXiXiXiXiXiXiX",
"iXiXiXiXiXiXiXiXiXiXiXiXiXiXiXiXuXuXuXuXiXeXc H H H H H H D D 8 H H H F V n aXuXiXiXuXiXiXiXiXiXiXiXiXiXiXiXiXiXiXiXiXiX",
"iXiXiXiXiXiXiXiXiXuXiXiXiXiXiXuXuXuXtXsXgXnXL B H H D H H D H S H F H H C 9XjXsXtXuXiXiXsXtXiXiXiXiXiXiXiXiXiXiXiXiXiXiX",
"iXiXiXiXiXiXiXiXuXiXuXiXsXdXpXsXuXuXjXeX3.P m J H H H H H H H H H F H D +.3.5XrXdXuXiXnXyXdXuXpXiXiXiXiXiXiXiXiXiXiXiXiX",
"iXiXuXsXuXuXiXiXuXiXsXsX7XL n dXgXgX3.  O X 4 J H H D c H D H D H H S H ;.& . O 8XnXkXeX5 L jXhXdXiXiXiXiXiXiXiXiXiXiXiX",
"iXiXuXuXuXuXiXiXsXuX3.b b Z N 2.5X7X  = * * * H Z S J 3 N H D H H F D H =.& * % o z 5XG D n z m 3.dXiXiXiXiXiXiXiXiXiXiX",
"iXiXuXuXsXuXuXsXdXG M D F H #.N @ O - % % % > O.B F H 1 M H H H D S F ;.M # % % * o * H H D #.k = L jXsXiXiXiXiXiXiXiXiX",
"iXiXuXuXuXuXuXnXL M H H D H H #.c # % % * * & ;.#.H S 5 #.H S #.H F Z :.d O % % % * F H J D D n * b 6XsXuXiXiXiXiXiXiXiX",
"iXiXiXiXiXiXiXkX5 H #.D D O.H H J 2 # % * $ $ M %.J 8 #.H S S H ;.$.A -.- = * % $ 5 H H H H 3 & 1 b m iXuXsXiXiXiXiXiXiX",
"iXiXiXiXiXtXaX6X@ B H H D H H H H V * * % : * 5 <.M g <.#.H Z :.=.V -.j % = = $ 2 J J H H c 3 D H H b 2.sXuXiXiXiXiXiXiX",
"iXiXuXuXiXgX5.% O 2 H D H H H Z H %.8 & % O = - 1.g g ,.*.A -.a < A 7.7 % % % & V %.V H N 8 H H H H F b eXsXiXiXiXiXiXiX",
"iXiXtXiXsXaXc G x % N #.H H H Z F $.$.& = O = o =.z.@.1.c.z.z.3 4.<.1.+ $ % * , 4.H H H M H H F F H H F K dXuXuXiXiXiXiX",
"iXiXiXuXiX8XM H J > k J H H Z A F V 1.j $ % % v #.q.lX4.=.v.qX-.8._.@.8 1 $ & ,.:.F H H H H H H H H H F v aXiXuXiXiXiXiX",
"iXiXiXuXgX9Xv H J v 3 H F H N V $.$.C 9.8 S F J #.8.qX0.O.0.qXq.&.4.D #.N S ` k.C F H H H H H H H Z J F b pXsXuXiXiXiXiX",
"iXiXiXiXiXjXH J J F > N J H D c C @.9.v.O.@.+.O.7 ` k.' 6 7.7.k.` 6 ` &.O.B &.(.7.O.B H H H H D B H J V 5.jXiXiXiXiXiXiX",
"iXiXiXuXhXjX$ 8 D %.x 8 H V H #.O.7.<.v.>.` Y q q Y T Y Y t E Y t t Y W X.R.8._.v.=.O.H D H H D H $.V 2 0 sXsXiXiXiXiXiX",
"iXiXiXsX8X  % & > N %.3 J :.<.=.7._.<.x.].~.I.A.B.B.V.M.w.{ d.r.[ s.A.|.,X<X[._.q.c.<.%.*.J Z $.4.5 * $ @ = sXiXiXiXiXiX",
"iXiXiXjXm O * * * * b -.7 g g o.v._.7.].oXL.%X1X2X;X:X;X%X.X!.{.*X1X1X1X1X{.B.(.v.v.C M V C :.<., - % $ =   8XsXiXiXiXiX",
"iXiXsXpXo % = * * * & < =.-.o.:.8.v.].W.! Q !.2X&X;X:X1X,X;X1X2X2X;X-X&X Xy. .h.'.8.%.5.*.1.$., = * * * = % l jXiXiXiXiX",
"iXiXjXl # ; * % % % % : , h k.qX0.(.>Xr.s.#X=XF.[ A.2X|.i.( s.S.V.r.[  .r.[ [ b.OX6.c.v.1.9 $ * * % % * % %   P sXiXiXiX",
"iXsXrXo % ; % % % O : O * & c #.6.oX{.S.3XI.y._ E Q.-X[ y y ! ^ [ p._ I y T r.C.1Xj.>.$.4 o * * * % % % % = % % jXiXiXiX",
"iXgX8Xo = % % * % * : * $ 8 $.` R -XT.!.~.~ R i ! *X!.Q T r.y.N.C.M.d./ e W m.%X-X..p ` H % $ * % % % % % % = O jXiXiXiX",
"iXsX8X  : % * * * % * & 0 $.' Y [ =X.X&Xg.! r r T +X;Xb.d.}.1X:X2X;X{.r.~ ..H.2XS.E w q A G 2 $ % % % = % * % : jXsXiXiX",
"iXiXsX% % % * = * % * * H =.W E a.-X.X|.Q y E ) g.-X;X1X;X1XY.F.F.|.1X=XK.Y.:XoXa.E r q f ;.v $ % % % % % % # l jXiXiXiX",
"iXsXuXo % % % % * % $ 5 H *.g.G.=XP.-XB.R [ f. X1X1X:XD.Y.A.~ ~ ~ d.=X1X1X1X,X$Xf.{ E i q C H ; = % % = % * % 0 kXuXuXuX",
"uXgX9X  % % % * * % % x H l.,X1X{.XXD.[ [ K.:X-X+X=X1XD.H.!.d.Z.K.@X:X1X&X*X,X1XY.b.| E q C %.2 % % O = # # $ X dXsXiXiX",
"gX0Xm k 5 2 * * $ + # v o.E.w.w.XXZ.~ ~ V.2X}.u.u.N.@X2XC.&X:XXXXX2X1XY.N.N.K.:X1X{.b._ t h ;.k # # - < d b 4 v G yXiXiX",
"gXF N H J H J A A A 4 A k./.Q Q *XoX X+X1X{.r.( ( a.y.,XP.n.m.K.-XL.N.f.M.y. .F.;X X XM._ r @.V a *.,.1.-.$.J H n 3.gXiX",
"nXF H H H #.#.A $.7.c.>.i.:Xf.~.*X3X&X!.f.e.) e R } ~  X2XT..X2XXX[ _ _ W y T )  XD.S.{.r.I q <.x.=.o.O.O.H H H F 3.gXtX",
"aXb H H H D D H B >.`.(.X.#XL.@XXX2XA.( ) i.Q t _ s.[ w.F.I.G.g.[ ) i./ i w e / L.Q.a.;Xy.T ' lX).=.H Z D H S S F %.jXiX",
"0Xn G D H D #.D Z ,.).).X.+X@XL.] +X,Xa.p.( I r Y / X.i.} } | | X.p._ W i t i / B.I.w.1XI. .6.`.x.o.H D D D S F H n iXiX",
"8Xn H H H #.#.D Z >.).v.l.=X3XF.Q B.4X!.y.} U r t i Y U R I R I U I i t w t i / f.%Xb.B.oX{.R.lXz.Z D D #.#.H H H v rXiX",
"0Xn H H H H B G O.@.).).].;X1X&XB.XX,X;XZ.M.a.[ [ ) ) ) e.a.a.a.e.! i w w t e _ f.:X4XF.) Q.(.`.z.A O.O.+.H H F H v uXiX",
"aXk n F v 3 v H Z O.k.).(.;X{.,X1X1X1X,X,XJ.u.m.m.n.n.N.D.U.T.T.D.| E e t e i / f.:X+X X~ a.7.c.x.,.=.<.o.O.D G Z J dXsX",
"jXv 1 1 > n G H #.B 7.`.'.~. .I.=XV.|.1X,X;X{.+X%XXXXX-X2X1X:X4X;XV.} R E Q R ( L.#Xu.}.^ A.9.>.a 9 8 d 1.H F H V 5.hXiX",
"sX3.N H H H A J #.B 7.).7.|.~ !.J.Q e.&X1X1X1X,X:X-X-X%X{.K.Z.P.1X1Xa.[ a.e.e.M.:Xg.) -XoXOX<.c.j B H b A ;.H H b 0XsXuX",
"iX0XM J H O.Z N J ,.7.C ,.OXw.+XJ.Q ) r.B.D.N.g.C.M.y.e._ ) { y.I.2XXXN.C.Z.L.=XL.~ e.,X|.^.o.@.7.=.F H O.8 c c V cXiXiX",
"iXiXn H H H %.:.1.C , v =.^.) A.,X|  .f.( / T } [ ) / W p t i ( y.I.;X2X%X X!.g. .e.#XF. .E.@.8 , K ;.+.#.D N N L dXtXiX",
"iXnX2.B H J A d , $ $ k A ^.f.] A.*X.XN.w.T y i t i t t w w r I / u.C.=Xr.Q Q  .J.1X|.~ M.E.O.2 = & ; g &.#.J c 0XsXiXiX",
"uXuXpXm F s $ % % * $ 2 +.].2X;XG...L.;X|.i.^ e e U U y t i t Y E y.m.=Xg.Q ^ y.-XF.[ r.|.k.V * % = O % 4 N n 3.cXiXiXiX",
"pXtXsXiXO $ $ % % % O * A 6.I.I.1X~.~ t.;XQ.) R ! a.X.p T / / ( | u.f.:X=XD.g.T.I.] w.I.<X>.x % % = = % ; @ m kXiXiXiXiX",
"iXiXiXjXm @ % % % % = # s =.i.m.D.1X@XD.-X1XI.y.m.D.e./ w.f.f.N.m.m.J.,X;X1X1XoX .y.T.,XW.A 2 # = % # = ; . 6XsXiXiXiXiX",
"iXiXiXsXrX  % % = % % @ 8 -.W ) b.H.=X4X1X:X:XU.m.u.E ~ u.m.T.=X+X#X;X,X;Xm.u.] A.=X4X,Xk.C 2 % % % % % * o sXsXiXiXiXiX",
"iXiXiXsX8X. % % % % $ $ 2 H o.' ^ ( w.H.XX&X:X:XD.t.] t.P.-X*X>XbXvXxX#X1XF.a.!.3X;XI.| h C $ % % % % % %   iXuXiXiXiXiX",
"iXiXuXjXz O O O o o l l = eXhXgXdXpXwXp.t.t.C.-X@XJ.K..X;X[.vXsXtXtXsXwXW.&X*X=XL.l.wXcXdX8XO = = O o o o   5XsXiXiXiXiX",
"iXiXiXuXjXnXhXhXnXnXgXjXhXsXsXiXiXfXgXcX].zXzXzXbXbXbXbXvXtXuXuXtXuXsXtXtXwX[.wXcXgXsXsXsXsXkXsXjXjXjXjXjXjXsXuXiXiXiXiX",
"iXiXiXiXuXuXsXuXiXiXiXiXiXiXiXiXiXiXiXtXfXjXfXfXtXjXgXtXiXiXuXsXuXuXuXtXuXtXgXgXuXuXuXuXuXuXsXuXiXiXiXiXiXiXiXiXiXiXiXiX",
"iXiXiXiXiXiXiXuXiXiXiXiXiXiXiXiXiXiXiXiXiXiXiXaXuXiXtXiXiXiXiXiXsXuXuXsXuXuXtXsXuXuXuXsXuXuXuXuXiXiXiXiXiXiXiXiXiXiXiXiX",
"iXiXiXiXiXiXiXiXiXiXiXiXiXiXiXiXiXiXiXiXiXiXiXiXiXiXiXiXiXiXiXuXuXuXsXuXuXuXuXuXuXsXuXuXuXuXuXuXiXiXiXiXiXiXiXiXiXiXiXiX",
"iXiXiXiXiXiXiXiXiXiXiXuXiXiXuXiXiXiXiXiXiXiXiXiXiXiXuXiXiXiXiXiXuXuXuXuXsXuXuXsXuXuXuXuXuXuXsXuXiXiXiXiXiXiXiXiXiXiXiXiX",
"iXiXiXiXiXiXiXiXiXiXiXiXiXiXiXiXiXiXiXiXiXiXiXiXiXiXiXiXiXiXiXiXsXuXuXsXuXuXuXuXuXsXsXuXuXsXsXuXiXiXiXiXiXiXiXiXiXiXiXiX",
"iXiXiXiXiXiXiXiXiXiXiXiXiXiXiXiXiXiXiXiXiXiXiXuXiXiXiXiXiXiXiXiXuXuXuXuXuXuXsXuXuXuXuXuXuXuXuXuXiXiXiXiXiXiXiXiXiXiXiXiX"
};
