/* XPM */
static char *pers_r_601732183703[] = {
/* columns rows colors chars-per-pixel */
"60 60 227 2 ",
"   c #060919",
".  c #09111A",
"X  c #17171B",
"o  c #221919",
"O  c #02132C",
"+  c #0A1729",
"@  c #181B2B",
"#  c #131D31",
"$  c #18212C",
"%  c #0C2338",
"&  c #1B2333",
"*  c #182639",
"=  c #26262D",
"-  c #392B29",
";  c #2C2E35",
":  c #242A3B",
">  c #342D33",
",  c #39333A",
"<  c #54361A",
"1  c #6B2A07",
"2  c #4D352D",
"3  c #6D3B2C",
"4  c #7A481C",
"5  c #584438",
"6  c #754828",
"7  c #1D334C",
"8  c #092D52",
"9  c #18375A",
"0  c #282D44",
"q  c #2C3343",
"w  c #273449",
"e  c #323B47",
"r  c #273A54",
"t  c #363E5A",
"y  c #063167",
"u  c #073A77",
"i  c #3D424B",
"p  c #384759",
"a  c #0E447E",
"s  c #16477B",
"d  c #2A4666",
"f  c #3A4A66",
"g  c #3E526C",
"h  c #284C76",
"j  c #305175",
"k  c #3B5878",
"l  c #48494C",
"z  c #584A47",
"x  c #5E534B",
"c  c #515356",
"v  c #704C48",
"b  c #745B48",
"n  c #685A56",
"m  c #76665A",
"M  c #424D64",
"N  c #45546A",
"B  c #575B64",
"V  c #53536A",
"C  c #485D7A",
"Z  c #5E6168",
"A  c #4D607A",
"S  c #54657D",
"D  c #59677A",
"F  c #666767",
"G  c #796A65",
"H  c #676C74",
"J  c #767373",
"K  c #797674",
"L  c #8A3205",
"P  c #823F35",
"I  c #91480F",
"U  c #984817",
"Y  c #A8450A",
"T  c #B7490D",
"R  c #B7520E",
"E  c #B55918",
"W  c #8C5533",
"Q  c #AA5A3E",
"!  c #A96D33",
"~  c #C45605",
"^  c #D66408",
"/  c #C56719",
"(  c #E66903",
")  c #EF7101",
"_  c #FE7803",
"`  c #D27B29",
"'  c #8E5547",
"]  c #A95545",
"[  c #8F6A52",
"{  c #B16D4C",
"}  c #987A65",
"|  c #847974",
" . c #917475",
".. c #AB7764",
"X. c #CA7656",
"o. c #FF8800",
"O. c #87867C",
"+. c #988B7E",
"@. c #AF8C75",
"#. c #D5854C",
"$. c #D78E67",
"%. c #CF9070",
"&. c #E69C6B",
"*. c #D7A07B",
"=. c #003A89",
"-. c #0B4588",
";. c #194D87",
":. c #105596",
">. c #265787",
",. c #26679C",
"<. c #3A6A98",
"1. c #1562A5",
"2. c #0563B1",
"3. c #106DB5",
"4. c #1B73B6",
"5. c #2268A8",
"6. c #356DAA",
"7. c #2976AF",
"8. c #287EB5",
"9. c #496485",
"0. c #546782",
"q. c #596A84",
"w. c #546B88",
"e. c #5C6E89",
"r. c #5A7289",
"t. c #4A6E97",
"y. c #57749A",
"u. c #6A7887",
"i. c #60728C",
"p. c #707C8A",
"a. c #1777C6",
"s. c #0775D0",
"d. c #287CC2",
"f. c #897F80",
"g. c #2880BE",
"h. c #79888D",
"j. c #6D8D9C",
"k. c #4F89B4",
"l. c #5C97B9",
"z. c #6D9BB4",
"x. c #739BB2",
"c. c #74A4B9",
"v. c #1688D3",
"b. c #2988CC",
"n. c #378ECB",
"m. c #3596CE",
"M. c #228DD2",
"N. c #2893D7",
"B. c #3399DA",
"V. c #36A2DF",
"C. c #1A94E3",
"Z. c #2B9BE3",
"A. c #18ABF6",
"S. c #16A5FB",
"D. c #2AA4E9",
"F. c #37A5E8",
"G. c #36ABEC",
"H. c #3CB1ED",
"J. c #26A7F5",
"K. c #36ADF2",
"L. c #37B2F7",
"P. c #4D95C4",
"I. c #5CADDE",
"U. c #77AFD0",
"Y. c #42B3F3",
"T. c #4DC6FE",
"R. c #59C5F7",
"E. c #70CFF1",
"W. c #898A86",
"Q. c #928C87",
"!. c #98948A",
"~. c #8D9394",
"^. c #999C97",
"/. c #A59889",
"(. c #AA9B8C",
"). c #B79A89",
"_. c #A19D93",
"`. c #9CA198",
"'. c #ABA69B",
"]. c #B6AA95",
"[. c #B8AA9B",
"{. c #8A9FA9",
"}. c #8CA8B1",
"|. c #A4ABA7",
" X c #ACACA3",
".X c #B1AFA3",
"XX c #B5ACA4",
"oX c #AEB0A4",
"OX c #B5B2A5",
"+X c #BAB3A5",
"@X c #B7B3AA",
"#X c #BBB6AB",
"$X c #BCB9AE",
"%X c #BDB7B1",
"&X c #B7BDB7",
"*X c #BEB9B3",
"=X c #CDA68C",
"-X c #C9B59C",
";X c #D7B799",
":X c #EEB891",
">X c #C5B8A7",
",X c #C2BAAC",
"<X c #D1BAA7",
"1X c #C3BCB3",
"2X c #C7BEB6",
"3X c #E1BEA3",
"4X c #F1C997",
"5X c #C7C0AB",
"6X c #D6C3A9",
"7X c #C6C1B5",
"8X c #CAC3B4",
"9X c #C5C2BA",
"0X c #CAC4BA",
"qX c #C7CCB9",
"wX c #CEC9BB",
"eX c #D5CBB9",
"rX c #EBC9A7",
"tX c #FACDA7",
"yX c #FFDBA6",
"uX c #FBD8B5",
"iX c #FEDAB4",
"pX c #FFEBB5",
"aX c #FFE6BA",
"sX c #8ADCF5",
"dX c #D4D3C8",
"fX c #F7E7C9",
"gX c #FFFBD4",
/* pixels */
"*X*X*X*X*X*X*X*X*X*X*X*X*X*X*X*X*X*X*X*X*X*X*X*X*X*X*X*X*X*X*X*X*X*X*X*X*X*X*X*X*X*X*X*X*X*X*X*X*X*X*X*X*X*X*X*X*X*X*X*X",
"*X*X*X*X*X*X*X*X*X*X*X*X*X*X*X*X*X*X*X*X*X*X*X*X*X*X*X*X*X*X*X*X*X*X*X*X*X*X*X*X*X*X*X*X*X*X*X*X*X*X*X*X*X*X*X*X*X*X*X*X",
"*X*X*X*X*X*X*X*X*X*X*X*X*X*X*X*X*X*X*X*X*X*X*X*X*X*X*X*X*X*X*X*X*X*X*X*X*X*X*X*X*X*X*X*X*X*X*X*X*X*X*X*X*X*X*X*X*X*X*X*X",
"*X*X*X*X*X*X*X*X*X*X*X*X*X*X*X*X*X*X*X*X*X*X*X*X*X*X*X*X*X9X1X*X*X*X*X*X*X*X*X*X*X*X*X*X*X*X*X*X*X*X*X*X*X*X*X*X*X*X*X*X",
"*X*X*X*X1X*X*X*X*X*X*X*X*X*X*X*X*X*X*X*X*X*X1X,X<X<X<X<XOXj.|.>X*X*X#X$X*X%X*X*X*X*X*X*X*X*X*X*X*X*X*X*X*X*X*X*X*X*X*X*X",
"*X*X*X*X*X*X*X*X*X*X%X*X*X*X*X%X*X*X1X*X1X'.v.S.A.S.N.l.+X|.C.z.-X#XoXOX*X*X$X*X*X*X*X*X*X*X*X*X*X*X*X*X*X*X*X*X*X*X*X*X",
"*X*X*X*X*X*X*X*X*X*X*X*X*X*X*X%X*X%X@X>X>X6X| :.m.V.F.J.C.l.P.S.z.;X{.{.,X*X*X*X*X*X*X*X*X*X*X*X*X*X*X*X*X*X*X*X*X*X*X1X",
"*X*X*X*X*X*X*X*X*X*X*X*X*X*X*X*X*X*X Xx.|.}.c.1.b.B.F.F.G.C.b.G.C.(.}.n.+X%X*X*X*X*X*X*X*X*X*X*X*X*X*X*X*X*X*X*X*X*X*X*X",
"*X*X*X*X*X*X*X*X*X*X*X*X*X*X*X*X*X*X+X4.K.F.J.R.R.N.F.H.G.G.G.G.F.w.I.v.@X%X*X*X*X*X*X*X*X*X*X*X*X*X*X*X*X*X*X*X*X*X*X*X",
"*X*X*X*X*X*X*X*X*X*X*X*X*X*X*X*X%X#X<X~.2.L.K.Y.g.m.E.Y.J.G.H.G.K.N.L.2. X%X*X*X*X*X*X*X*X*X*X*X*X*X*X*X*X*X*X*X*X*X*X*X",
"*X*X*X*X*X*X*X*X*X*X*X*X*X*X*X*X#X+X|.x.6.d.V.b.7.T.R.sXE.V.D.H.H.H.a.w.>X#X*X*X*X*X*X*X*X*X*X*X*X*X*X*X*X*X*X*X*X*X*X*X",
"*X*X*X*X*X*X*X*X*X*X*X*X*X*X*X%X$X~.=.-.b.Y.B.Y.F.8.M.Z.sXR.R.R.5.L.M.c.>X,X*X*X*X*X*X*X*X*X*X*X*X*X*X*X*X*X*X*X*X*X*X*X",
"*X*X*X*X*X*X*X*X*X*X*X*X*X*X*X%X+X>X^.k y ,.n.b.N.5.5.G.D.E.R.S w.K.d.v.j.XX@X*X*X*X*X*X*X*X*X*X*X*X*X*X*X*X*X*X*X*X*X*X",
"*X*X*X*X*X*X*X*X*X*X*X*X*X*X*X*X@X,X>Xi.,.B.L.a.8.8.M.F.G.J.<.&.z.V.A b.=.>.#X*X*X*X*X*X*X*X*X*X*X*X*X*X*X*X*X*X*X*X*X*X",
"*X*X*X*X*X*X*X*X*X*X*X*X*X*X*X*X$XOX1.s.5.N.7.v.2.4.m.G.L.,.#.gXk.l.@.a.r.XX,X*X*X*X*X*X*X*X*X*X*X*X*X*X*X*X*X*X*X*X*X*X",
"*X*X*X*X*X*X*X*X*X*X*X*X*X*X*X*X$X#XrXh.5.;.u f V h F.F.,.U % % 8.%.[ y z.6X*X*X*X*X*X*X*X*X*X*X*X*X*X*X*X*X*X*X*X*X*X*X",
"*X*X*X*X*X*X*X*X*X*X*X*X*X*X*X*X*X1X~.a ;.;.>.;. .j.v.3.z.:Xk.7 | 4X0 8 p.9X*X*X*X*X*X*X*X*X*X*X*X*X*X*X*X*X*X1X*X*X*X*X",
"*X*X*X*X*X*X*X*X*X*X*X*X*X*X*X*X*X7Xr.>.a a >.:.| p.a.N.z.aXY.U.4X-Xj d ^.1X*X*X*X*X*X*X*X*X*X1X*X*X*X*X*X*X*X*X*X*X*X*X",
"*X*X*X*X*X*X*X*X*X*X*X*X*X%X*X*X*X*X5X Xh.a ;.;.;.5.d Z.{.yXdXfXiXrX/.W.@X#X*X*X*X*X*X*X*X*X*X*X*X*X*X*X*X*X*X*X*X*X*X*X",
"*X*X*X*X*X*X*X*X*X*X*X*X*X*X*X*X*X$X$XOXr.0.-.u ;.=.v >.U.aXuXrXrXiX;X'.@X*X*X*X*X*X*X*X*X*X*X*X*X*X*X*X*X*X*X*X*X*X*X*X",
"*X*X*X*X*X*X*X*X%X*X*X*X*X*X*X*X*X*X*X$XeXp.D w.9 9 t #.G iXiXiXaX;X(.*X*X*X1X*X*X*X*X*X*X*X*X*X*X*X*X*X*X*X*X*X*X*X*X*X",
"*X*X*X*X*X*X*X*X%X*X*X*X*X*X*X*X*X*X*X*X>X.X*XZ [ Z 8 } X.P } ;X3X!.#X,X*X*X*X*X*X*X*X*X*X*X*X*X*X*X*X*X*X*X*X*X*X*X*X*X",
"*X*X*X*X*X*X*X%X*X%X*X*X*X*X*X*X*X*X*X1X'.B r 9.K #.H 7 [ 3 O 5 +.9X#X%X%X*X*X*X*X*X*X*X*X*X*X*X*X*X*X*X*X*X*X*X*X*X*X*X",
"*X*X*X*X*X*X*X%X*X%X&X%X*X*X*X*X*X*X*X7X!.+ - v j G { y.t 2 = : I |.%X*X*X*X*X*X*X*X*X*X*X*X*X*X*X*X*X*X*X*X*X*X*X*X*X*X",
"*X*X*X*X*X*X*X*X*X*X*X*X*X*X*X*X*X*X*X2X!.O X.:Xb h ! D j.p = 8 1 |.1X*X*X*X*X*X*X*X*X*X*X*X*X*X*X*X*X*X*X*X*X*X*X*X*X*X",
"*X*X*X*X*X*X*X*X*X*X*X*X*X*X*X*X*X*X*X1X|.z fXgX&.l l b >.D S g < &X1X*X*X*X*X*X*X*X*X*X*X*X*X*X*X*X*X*X*X*X*X*X*X*X*X*X",
"*X*X*X*X*X*X*X*X*X*X*X*X*X*X*X*X%X*X*X*X.X-XiX:X*., ; [ C q.e.<.^ |.1X*X%X%X*X*X*X*X*X*X*X*X*X*X*X*X*X*X*X*X*X*X*X*X*X*X",
"*X*X*X*X*X*X*X*X*X*X*X*X*X*X*X*X*X*X*X*X].rXfXgXb % f A w.S t.n ( ^.*X*X%X%X*X*X*X*X*X*X*X*X*X*X*X*X*X1X*X*X*X*X*X*X*X*X",
"*X*X*X*X*X*X*X*X*X*X*X%X*X*X*X*X*X*X*X,X-XuXiX=X. e S A N w.9.` T (.*X#X*X*X*X*X*X*X*X*X*X*X*X*X*X*X*X*X*X*X*X*X*X*X*X*X",
"*X*X*X*X*X*X*X*X*X*X*X1X*X*X*X*X*X#XOXf.4XpX=X(.u.+ s y 6.6.[ ) ' =X@X7X*X*X*X*X*X*X*X*X*X*X*X*X*X*X*X*X*X*X*X*X*X*X*X*X",
"*X*X*X*X*X*X*X*X*X*X*X*X*X*X*X*X*X1X~.O 8 B = p.(.1 ~ / R L ~ L ' %.m J *X*X*X*X*X*X*X*X*X*X*X*X*X*X*X*X*X*X*X*X*X*X*X*X",
"*X*X*X*X*X*X*X*X*X*X*X*X*X*X*X*X*X2X'.< [ z # H @.L E ~ E Y T ~ > , b W W.2X*X*X*X*X*X*X*X*X*X*X*X*X*X*X*X*X*X*X*X*X*X*X",
"*X*X*X*X*X*X*X*X*X*X*X*X*X*X*X*X%X0XF t 6 6 H '.J * p f w R U 3 d 2 $.[ @  X,X#X#X%X*X*X*X*X*X*X*X*X*X*X*X*X*X*X*X*X*X*X",
"*X*X*X*X*X*X*X*X*X*X*X*X*X*X*X*X%XwXr f r D *X$Xw g w.y.n ( / E j } 3 : > | 1X#X%X*X*X*X*X*X*X*X*X*X*X*X*X*X*X*X*X*X*X*X",
"*X*X*X*X*X*X*X*X*X*X*X*X*X*X*X*X1X&X3 @.x i qXF g S S t.! ^ 6 ^ j W.l + 2 fX[.#X+X*X*X*X*X*X*X*X*X*X*X*X*X*X*X*X*X*X*X*X",
"*X*X*X*X*X*X*X*X*X*X*X*X*X*X*X*X1X@XtXgXaXrX9X7 i.A r.t.( / 6 ) d q.dXF ] { :X(.@X*X*X*X*X*X*X*X*X*X*X1X*X*X*X*X*X*X*X*X",
"*X*X*X*X*X*X*X1X*X*X*X*X*X*X1X*X$X{ ;XuX*.%.W.f C M A N o./ 6 _ M p h.-X' Q Q ).@X*X*X*X*X*X*X*X*X*X*X*X*X*X*X*X*X*X*X*X",
"*X*X*X*X*X*X*X*X*X*X*X*X*X*X*X*X$X).Q $.] ).$X# f V g , I 4 2 4 A f H dX..] ..XX@X*X1X*X*X*X*X*X*X*X*X*X*X*X*X*X*X*X*X*X",
"*X*X*X*X*X*X*X*X*X*X*X*X*X*X*X*X$X*X(.].(.5X!.g q.r.i.0.& % * * e.e.D  X'.[.XX%X+X*X*X*X*X*X*X*X*X*X*X*X*X*X*X*X*X*X*X*X",
"*X*X*X*X*X*X*X*X*X*X*X*X*X*X*X*X+X,X#X&X5X`.e q.D q.i.e _.i : : N e.A `.2X*X1X*X*X*X*X*X*X*X*X*X*X*X*X*X*X*X*X*X1X*X*X*X",
"*X*X*X*X*X*X*X*X*X*X*X*X*X*X*X*X#X$X@X+X5XW.g e.q.D D B dXW.* 0 M e.r.N OX#X#X*X*X*X*X*X*X*X*X*X*X*X*X*X*X*X*X*X*X*X*X*X",
"*X*X*X*X*X*X*X*X*X*X*X*X*X*X*X*X*X*X$X$XOXD A D e.i.7 #X,X.Xi : q N r.g !.1X*X*X$X*X*X*X*X*X*X*X*X*X*X*X*X*X*X*X*X*X*X*X",
"*X*X*X*X*X*X*X*X*X*X*X*X*X*X*X*X*X*X*X*X'.p S e.e.N + @X2X.Xl w t p g # OX*X*X*X#X@X1X*X*X*X*X*X*X*X*X*X*X*X*X*X*X*X*X*X",
"*X*X*X*X*X*X*X*X*X*X*X*X*X*X*X*X*X*X*X1X'.l : p t @   .X2X_.; 0 e e 0 $ +X$X%X*X*X@X*X*X*X*X*X*X*X*X*X*X*X*X*X*X*X*X*X*X",
"*X*X*X*X*X*X*X*X*X*X*X*X*X*X*X*X*X*X*X*X8XN * * @ B @X#X1X,X_.& : : @ !.1X*X*X*X*X*X*X*X*X*X*X*X*X*X*X*X*X*X*X*X*X*X*X*X",
"*X*X*X*X*X*X*X*X*X*X*X*X*X*X*X*X*X*X*X$X9X[ 2 ; = Q.9X+X+X@XwXO.o ; - !.1X*X*X*X%X#X*X*X*X*X*X*X*X*X*X*X*X*X*X*X*X*X*X*X",
"*X*X*X*X*X*X*X*X*X*X*X*X*X*X*X*X*X*X*X@X7Xx 5 < x wX*X+X@X+X+X0XX - - _.1X*X*X*X*X@X*X*X*X*X*X*X*X*X*X*X*X*X*X*X*X*X*X*X",
"*X*X*X*X*X*X*X*X*X*X*X*X*X*X*X*X$X#X@X#X@Xn 2 - G 7X*X#X#X#X+XdX= $ = @.5X8X*X%X%X1X*X*X*X*X*X*X*X*X*X*X*X*X*X*X*X*X*X*X",
"*X*X*X*X*X*X*X*X*X*X*X*X*X*X*X*X%X@X@X%X(.! ` 6 p.wX,X1X,X7X7XwX. $ > 4 b W.*X#X%X*X*X*X*X*X*X*X*X*X*X*X*X*X*X*X*X*X*X*X",
"*X*X*X*X*X*X*X*X*X*X*X*X*X*X*X*X@X@X1X@Xm I E U c _.Q.Q.Q.Q.Q.!.= o .   . X F 0X$X#X*X*X*X*X*X*X*X*X*X*X*X*X*X*X*X*X*X*X",
"*X*X*X*X*X*X*X*X*X*X*X*X*X*X*X*X@X,XQ.W.F p p p J | K K K | K | +.!.'.'.Q.!.!._.+X+X%X*X*X*X*X*X*X*X*X*X*X*X*X*X*X*X*X*X",
"*X*X*X*X*X*X*X*X*X*X*X*X*X*X*X*X1X*X1X1X9X0XwXqX8X2X2X2X8X0X8X2X5X7X,X,X2X1X1X,X#X@X%X*X*X*X*X*X*X*X*X*X*X*X*X*X*X*X*X*X",
"*X*X*X*X*X*X*X*X*X*X*X*X*X*X*X*X*X*X*X*X*X*X*X*X*X*X&X*X*X*X*X*X*X*X*X*X,X*X*X*X*X*X*X*X*X*X*X*X*X*X*X*X*X*X*X*X*X*X*X*X",
"*X*X*X*X*X*X*X*X*X*X1X*X*X*X*X*X*X*X*X*X*X*X*X*X*X*X*X*X*X*X*X*X*X*X*X*X%X*X*X*X*X*X*X*X*X*X*X*X*X1X*X*X*X*X*X*X*X*X*X*X",
"*X*X*X*X*X*X*X*X*X*X*X*X*X*X*X*X*X*X*X*X*X*X*X*X*X*X*X*X*X*X*X*X*X*X*X*X*X*X*X*X*X*X*X*X*X*X*X*X*X*X*X*X*X*X*X*X*X*X*X*X",
"*X*X*X*X*X*X*X*X*X*X*X*X*X*X*X*X*X*X*X*X*X*X*X*X*X*X*X*X*X*X*X*X*X*X*X*X*X*X*X*X*X*X*X*X*X*X*X*X*X*X*X*X*X*X*X*X*X*X*X*X",
"*X*X*X*X*X*X*X*X*X*X9X*X*X*X*X*X*X*X*X*X*X*X*X*X*X*X*X*X*X*X*X*X*X*X*X*X*X*X*X*X*X*X*X*X*X*X*X*X*X*X*X*X*X*X*X*X*X*X*X*X",
"*X*X*X*X*X*X*X*X*X*X*X*X*X*X*X*X*X*X*X*X*X*X*X*X*X*X*X*X*X*X*X*X*X*X*X*X*X*X*X*X*X*X*X*X*X*X*X*X*X*X*X*X*X*X*X*X*X*X*X*X",
"*X*X*X*X*X*X*X*X*X*X*X*X*X*X*X*X*X*X*X*X*X*X*X*X*X*X*X*X*X*X*X*X*X*X*X*X*X*X*X*X*X*X*X*X*X*X*X*X*X*X*X*X*X*X*X*X*X1X*X*X",
"*X*X*X*X*X*X*X*X*X*X*X*X*X*X*X*X*X*X*X*X*X*X*X*X*X*X*X*X*X*X*X*X*X*X*X*X*X*X*X*X*X*X*X*X*X*X*X*X*X*X*X*X*X*X*X*X*X*X*X*X"
};
