/* XPM */
static char *p_char_41732150386[] = {
/* columns rows colors chars-per-pixel */
"60 60 217 2 ",
"   c #010206",
".  c #0C0C0C",
"X  c #100F0E",
"o  c #030B13",
"O  c #0E0E11",
"+  c #101412",
"@  c #141413",
"#  c #191716",
"$  c #151A1B",
"%  c #1C1C1B",
"&  c #301D0F",
"*  c #241E1A",
"=  c #1D201E",
"-  c #22211F",
";  c #3A2514",
":  c #051623",
">  c #111D26",
",  c #1D2124",
"<  c #242423",
"1  c #2A2A26",
"2  c #262928",
"3  c #2D2C2B",
"4  c #352C26",
"5  c #312C2B",
"6  c #33312D",
"7  c #3E302E",
"8  c #272D33",
"9  c #2D3335",
"0  c #353433",
"q  c #3B3936",
"w  c #353738",
"e  c #3D3C3B",
"r  c #58321C",
"t  c #6F3112",
"y  c #6A3813",
"u  c #4B3324",
"i  c #423931",
"p  c #403E3C",
"a  c #583D36",
"s  c #773E27",
"d  c #57472B",
"f  c #42413E",
"g  c #724B27",
"h  c #313B41",
"j  c #003876",
"k  c #394042",
"l  c #234460",
"z  c #444341",
"x  c #494B48",
"c  c #53534E",
"v  c #4F5051",
"b  c #595A56",
"n  c #714B41",
"m  c #62615F",
"M  c #7E6655",
"N  c #656461",
"B  c #6B6A67",
"V  c #716F6A",
"C  c #756C73",
"Z  c #777975",
"A  c #7E7D7A",
"S  c #864814",
"D  c #8A551D",
"F  c #9A591A",
"G  c #A55916",
"H  c #A6641A",
"J  c #B26718",
"K  c #8B592C",
"L  c #8E6022",
"P  c #B26E29",
"I  c #83534A",
"U  c #936248",
"Y  c #8E6A58",
"T  c #AD6653",
"R  c #B5765D",
"E  c #836667",
"W  c #9C7B69",
"Q  c #877870",
"!  c #A57B68",
"~  c #D07E65",
"^  c #7F807D",
"/  c #D18029",
"(  c #EB9325",
")  c #84827D",
"_  c #998674",
"`  c #B38870",
"'  c #B28E7E",
"]  c #D29173",
"[  c #D69576",
"{  c #E39878",
"}  c #E3A377",
"|  c #1D588C",
" . c #2B5C84",
".. c #0F6496",
"X. c #19659A",
"o. c #306B92",
"O. c #337294",
"+. c #1A69A6",
"@. c #1D77AC",
"#. c #167AB9",
"$. c #246DA7",
"%. c #2873A8",
"&. c #2C72AC",
"*. c #2A78AF",
"=. c #466C8B",
"-. c #57798E",
";. c #647889",
":. c #0272C1",
">. c #2C84B8",
",. c #3587BB",
"<. c #55829A",
"1. c #71878E",
"2. c #688B93",
"3. c #778C99",
"4. c #5C9FBF",
"5. c #6C95A9",
"6. c #7A97A4",
"7. c #6EA4B8",
"8. c #7CA4B3",
"9. c #1988CB",
"0. c #2788C3",
"q. c #368DC2",
"w. c #3A97C8",
"e. c #359DD6",
"r. c #2DA4DC",
"t. c #3CA6DA",
"y. c #32A5E0",
"u. c #3CB6ED",
"i. c #459BC8",
"p. c #429ED2",
"a. c #57A5CD",
"s. c #43A3D3",
"d. c #45ACDC",
"f. c #4AACDC",
"g. c #6CA7C2",
"h. c #43AEE3",
"j. c #48AFE3",
"k. c #4CB3E4",
"l. c #4CB9E6",
"z. c #47B6E9",
"x. c #4DBCEC",
"c. c #55BCE7",
"v. c #53BDEB",
"b. c #58BBEB",
"n. c #49BBF2",
"m. c #50BEF2",
"M. c #60BDE6",
"N. c #4DC1ED",
"B. c #56C2EB",
"V. c #54C2ED",
"C. c #4BC4F7",
"Z. c #54C3F3",
"A. c #5CC3F1",
"S. c #6FCDED",
"D. c #898884",
"F. c #8B8A85",
"G. c #8B908F",
"H. c #93928C",
"J. c #9A9A95",
"K. c #A89487",
"L. c #A6958D",
"P. c #B89985",
"I. c #9AA098",
"U. c #A4A39E",
"Y. c #B8A898",
"T. c #899AA2",
"R. c #949EA2",
"E. c #98A2A4",
"W. c #8EABB4",
"Q. c #A7A8A5",
"!. c #ABAAA3",
"~. c #B7ADA2",
"^. c #B5B1AC",
"/. c #BBB4AA",
"(. c #B8B8AF",
"). c #AFB3B3",
"_. c #B6B5B2",
"`. c #B9B7B2",
"'. c #BCB9B2",
"]. c #BDBDB9",
"[. c #C49C84",
"{. c #D09E89",
"}. c #C8AE90",
"|. c #EAAC88",
" X c #E9BC9B",
".X c #F8BE9B",
"XX c #C7B8A9",
"oX c #C2BDB4",
"OX c #CBBFB4",
"+X c #C3BFB9",
"@X c #BEC1BB",
"#X c #FBC59C",
"$X c #C4C1B6",
"%X c #CAC2B6",
"&X c #C2C1BB",
"*X c #CAC4BA",
"=X c #C8C8BF",
"-X c #EBC6A9",
";X c #FED5AB",
":X c #F3CEB0",
">X c #FDD4B3",
",X c #FCD7B9",
"<X c #FFDCBC",
"1X c #FFE3B7",
"2X c #B9BFC3",
"3X c #8FDAEB",
"4X c #A4ECFF",
"5X c #C6C6C1",
"6X c #CACAC4",
"7X c #C8C9C6",
"8X c #D2D1CD",
"9X c #F0DBC9",
"0X c #FFE5C2",
"qX c #FFEBC4",
"wX c #F7E3D3",
"eX c #C5EDFD",
"rX c #FFFBF0",
/* pixels */
"'.'.'.'.'.'.'.'.'.'.'.].'.'.'.oX`.'.`.oX(.(.'.'.'.@X'.'.'.'.'.'.'.'.oXoX/.'.'.'.'.'.'.'.].'.oX].'.`.(.'.'.].(.]._._.+XQ.",
"'.'.'.'.'.'.'.'.].`.`.`.'.'.'.'.oX/.oX`.@X(.'.(.(.(.'.'.'.'.'.'.'.'.'./.'.'.'.'.oX/.'.'.`.`./.`.`.'.'.'.(.'.`.(._.oXoXoX",
"'.'.'.'.'./.'.'.`.`.`.`.'.`.oX'./.oX`.'.(.(.(.].(.(.(.(.'.'.'.'.'.'.@X'.].oX'.`.'.'.'.'./.`./.oX].'.'.'.'.(.].(._.].oX_.",
"'.'.'.(.'.oX'.'.oXoX`.`.oX'./.`.'.`.'.'.].(.].'.@X@X$XXX@X'.'.'./.(.@X'.'.'.'.'.'.'.'.'.oX`.oX`.'.'.'.'.].'.(.'._.^.oXoX",
"].`.'.'.'.'.'.oX`.oX_./.oX`.`.oX'.`.'.'.`.`.`.`.oX5.g.W.I./.$XoXXX$X3.%X'.'.'./.'.'.'.'.oX`.'.'.oX'.'.'.(.(.'.'.`.].oXoX",
"'.'.'.`.'.'.'./.oX`.`.oX`./.oX`.`.oX`.oX`.`.].`.oX`.t.C.C.d.a.Q.%X'.9.T.%X'.'.oXoX'./.oXoX`.oX'.`./.oX'.'.'.'.'.]._./.`.",
"'.`.'.].`.'.'.'.oX/.oX`.oX/.`.oXoX'.'.`.oXoXoXoXXXOXJ.j.N.N.N.z.7.XXt.9.T.%X(.'./.'.'.'.`.'.'.'.'.'.'.'.'.(.'.'._.oX/.oX",
"'.'.'.'.`.'.'.'.`.oX`.`.oX`.`.oX/.`.oX`.oXT.T.8.4.f.b.,.l.B.l.B.Z.a.i.V.#.I.$XoX'.'.'.'.`.`.'.'.'.'.'.'.(.@X'.'.]./.oX`.",
"].'.'.'.`.'.`.'.`.oX`./.oX`.'.`.'.'.'.oX'.$X5.u.m.b.c.V.N.c.c.c.B.V.w.Z.v.+.(.I.].'.(.(.(.].+X(./.'.'.'.'.'.'.'.].'.'.'.",
"'.'.'.'.oX`.oX/.oX`.'.'.`.`.`.oX'.'.'.'.oXoX=X!.i.x.N.v.c.B.c.V.V.V.x.d.A.,.o.<.*X'.'.'.(.'._.'.oX'.'.'.'.'.(.'.(.'.oX'.",
"'.oX'.oX`.oX`.oX'.'.'.'.`.oX`./.'.'.'.'.oXOXE.a.t.w.l.V.c.c.l.q.q.A.v.b.d.k.+.1.T.E.'.'.(.(.'.'.'./.'.'.'.'.`.'._.oX/.oX",
"(.'.'././.oX'.'.oX'.'.'.`.`.oXoX'.'.'.$X/.4.u.n.x.Z.x.v.x.k.k.C.k.s.m.m.c.c.%.>...$X'.(.(.].(.'.'.oX'.'.'.(.'.'.`.`.oX`.",
"'.'./.`.oX'.'.'.'.`.`.oX`.oXoX/.'.].@X6.y.z.z.m.m.B.S.l.l.j.x.v.v.v.v.b.m.d.&.0.<.+X'.`.'.'.'.'.oX'.oX`.'.'.'.'.`.oX`.oX",
"oX'.oX`.'.`.'.oX/.oXoX`.`./.`.`.'.'.(.E.T.i.m.n.c.3X4Xz.B.S.c.v.c.A.x.d.V.,.,.+.XX%X'.'.'.(.(.'.oX'.'.'.`.`.'.'.`.oXoX/.",
"/.oX'.oX'.'.'./.'.`.oX/.oX`.`.oX'.`.'.$X^.w.@.f.c.S.A.l.M.m.N.f.c.S.b.m.0.&.&.&.o. .+XoX'.'.'.'.`.`.`.'.'./.'.'.'.`.XXoX",
"'.'.'.`.'.'.'.'.oX`.`.oX`.oXoX/.'.'.'./.<.o.j.n.x.x.c.e.v.v.V.q.q.x.z.v.s.$.&.&.+.T.oX'.'.(.oX'.`.XXoX`.'.oX'.oX'.oX`.`.",
"`.'.oX'.`.'.`.`./.oX'.oX'.'.'.'.'.'.'.].*X8.C.c.m.b.h.$.z.x.l.*.l r.m.m.k.X.&.&.o.%X`.`.'.'.(.'./.oX`./.`.oX`.`./.oX/./.",
"`.'./.'.oX`.oXoX'.`.'.'.oX'.oX'.'.'.`.]./.h.Z.s.b.h.#.R w.x.j.O.{ X.x.w.b.| &.$.G.oX].`.'.'.'.'.`.`.oXoXoX`.oX`.`.`.oXoX",
"`.].'.'./.oX'.`.oX`.'.'.'.'.'.'.'.'.`.].E.C.%.f.b.:.W ;X6.n.r.E 1X-X>.p.s.| &.&.+.;.oX'.(.'.'.(.`.`.oX`.`.oXoX/.oX`.`.oX",
"`.'.'.'.`.`./.oX`.oX'.'.'./.'.'.'.'.`.'.W.>.;.f.t.8 @ _ -Xy.0.} XXk    .0.| $.+.o.%X].'.oX'.'.'.'.`._.oX`./.`.oX`.oXoX`.",
"`.'.'.(.`.'.'.`.`.oX`.`.'.(.'.'.'.@X].].6.J.XXf...|.R.: 0 E.>.m o o 9XC :.;.) l OXoX'.'.'.'.'.'.'.'.`.'.oX/.`.`.oXoX_.XX",
"].'.'.`./.oX'.oXoX/.`.oX'.(.'.(.(.(.(.].'.'./.d.j ,XeX  K.>XY. XW.o 2X'.:.! Q '.]./.'.'.'.'.'.'.'.'.`.oXoX`.`.oX_.oXoX_.",
"'.(.'.'.'.'.'.'.'.'.`.oX(.].].(.'.(.(.(.'.@X%X@.=.~.rXO.:X>X>X>XrX2.wXQ.*.E O.3.oX'.'.'.'.'.'.'.'.'.`.].`.`._.oX^.oXoX^.",
"'.'.'.'.'.'.'.`.oX'.`./.].`.(.].'.].'.].(.'.%X-.2XP.|.>X,X-X,X>X>X.X.XP.l -._.+X'.'.'.(.'.'.'.'.'.`.`.`./._.oXoX`._.oXoX",
"'.'.'.oX/.'.'.'.].(.].`.`.].].(.'.'.@X(.'.'.'.@X).Y.;X;X>X>X X-X,X0X>XU 3.3.+X`.'.'.'.(.'.'.'.'.'.'.'.oX/.'.'.'.].`.'.oX",
"'.'.'.'.'.'.'.'.(.`.`.].].(.'.'.'.'.(.'.(.'.'.'.@X^.Y.-XqX<X1X9X,X] u v '.5X`.].'.'.(.@X'.(.'.'.'.'.'.'.'.'.'.'.'.'.oX`.",
"'.'.'.oX/.oX'.'.`.].].'._.(.(.'.'.'.'.(.'.@X(.'.&X&X^ # O a ` R T i @ 7 f C &X&X'.'.'.(.'.'.'.'.'.'.oX'.'.'.'.(.`.`.oX`.",
"'.oX'.'.'.'.`.oX].`.`.`.].(.'.'.'.'.(.].(.(.'.@XH.1 q 0 @ T R ~ n $ < q p 0 % V &X'.'.'.(.'.'.(.'.'.'.'.'.'.'.'.`.`.oX/.",
"'.'.'.'.'.`.`.oX'.'.'.'.'.'.'.'.'.'.'.'.@X(.'.=Xf e p e q <X#XP.9 5 e p f 0 + @ 6X'.(.'.(.(.'.@X(.'.'.(.'.'.'.'.`.oX+XoX",
"'.].oX'.'.`.'.'.'.'.'.'.(.'.'.'.oX/.'.'.'.(.'.=Xx 0 e p 0 0XqXp e p h z 8 a I c &X'.`.].(.@X(.'.'.'.'.oX'.'.(.@X/.oX+X`.",
"'.'.'.'.].`.`.'.oX/.'.(.'.'.'.oX'.'.'.'.'.'.@X&X' 3 0 z w }._ q p z q 0 d {.] L.@X].].`.'.'.'.'.'.'.'.'.'.'.'.(.oX`.oX`.",
"'.'.`.`.`.'.'.'.'.'.'.'.oX'.'.'.'.'.'.'.'.'.'.U.<X{.6 z e f p e f z w 4 |.qX#X' ].(.(.].(.'.'.'.'.'.'.'.'.(.@X(./.oX+XoX",
"`.].`.`.`.'.'.oX'.'./.oX`.`.oX/.'.'.'.'.'.'.@XY.>X,X5 f f q z p w 6 2 O [. X|.' @X'.'.(.'.(.(.'.oX`.'.'.'.'.`.'.'.'.+X'.",
"`.'.'.'.'./.'.'.oX'.oX`.oX_.'.'.'.'.'.'.@X&XU.:X-X[ x f p f q q f q < $ !.,X,X#XL.5X'.(.(.@X(.'.'.'.oX/.'.`.'.`.'.'.oXoX",
"'.'.'.'.'.oX'.'.`./.'.`.oX`.'.oX'.'.'.'.@X) ` :X<X[ 2 8 w 8 w e 9 , $ f 7XP.0X}.` ) @X'.@X(.@X(.'.oX'.'.'.'.'.'.'.`.&X'.",
"'.'.'.'.'.'.'.'.'.oX'.oX/.oX`.`.'.'.'.'.=X* -X|.[ ! u H g D D L D S t u 7XG.1.Z f X $X@X(.'.(.'.'.'./.'.oX`.oX/.'.`.oX'.",
"'.'.'.'.'.'.'.'.'.'.(.'.oXoX`.oXoX/.'.'.`.2 9 Y U Q r J F F y G G S y ; 8X1.9 5 3 @ Q.@X(.(.@X(.'.'.'.'.'.oX'.'.'.'.oX`.",
"'.'.'.`.'.'.'.'.(.'.'.'.`.`.`./.'.'.'.+XU.i 0 % v V w k S ; F u 3 6 , O `.@X6 q 0 % _.'.(.(.(.'.'.'.'.'.'./.'.'.'.'./.oX",
"].`.`.'.'./.'.'.'.].'.'.`.'.'.oXoX'.'.5Xx q < < 5X3 z f / : L / w f q * f 8Xb 2 q # N &X(.(.(.'.'.'.'./.'.'.'.'.'.oX/.'.",
"].(.'.'.].oX'.'.`.(.'.'.'.'.'.`.'.'.'.Q.* 8 1 . V 3 0 g J , d ( U e z 3 + U.J.W 8 + 6 5X(.(.'.(.'.'.'.oX'.'.'.'.'.'.oX'.",
"'.'.'.'.(.'.'.'.].(.'.'.'.'.'.'.'.'.'.(.[.` ] Y Z 2 8 g D , q P g z e % # H.XXY M ] K.'.'.(.`.'.(.'.'.'.'.oX'.'.`.oX/.oX",
"'.'.(.oX'.'.'.'.'.'.'.'.'.'.'.'.'.(.(.@X(.' _ ^.J.< < < # * , < % # = < @ ^.XXK.[ P.2X'.'.'.(.'.'.'.'.'.'./.'.'.`./.oX`.",
"'.'.'.'.oX'.@X(.'.'.'.'.'.'.'.'.'.@X(.'.'.@X@X=Xb p f z z < z z e f f e % c 7X].@X@X(.`.(.'.'.(.'.'.'.].'.oX'.'.`.oX/.oX",
"'.'.'.(.'.(.(.'.'.'.'.'.oX'.'.'.(.(.@X'.'.'.'./.6 f p z 5 . Q.!.# p f f 2 # _.].].(.'.'.@X(.@X'.'.'.`.`.'.'.(.'._.oXoX`.",
"(.(.@X(.@X(.'.'.'.'.'.'.'.'.'.'.].(.(.'.'.(.=Xm q f e 1 % x 7X7Xm < f z q < . &X/.oX'.oX(.'.'.'.'.'.`.`.`.oX`.`.`.`.oXoX",
"'.'.'.(.(.'.'.'.'.'.'.'.(.'.'.'.'.(.'.'.(.'.$X) 3 f q 6 % B &X].Q.1 z z 3 1 @ =X'.'.'.'.(.'.'.'.`.`.'.].`.`.oXoX`.oXoX`.",
"'.(.(.'.'.(.'.'.'.'.'.'.'.(.'.`.].(.'.(.'.].'.8X# % 2 1 @ A ].].+X@ < 1 5 % e 5X'.'.'.'.'.'.'.'.].`.].`.`.oX`.`._.]./.oX",
"'.(.].].(.(.@X(.'.'.'.'.'.].'.'.'.(.'.@X(.(.].*X) u * * v 7X`.`.].!.z @ % & c 5X'.'.'.'.(.'.'.'.].`.`.`.`.`.`.`.].].`./.",
"'.'.'.'.(.@X'.(.'.'.'.'.'.'.'.'.'.`.`.].(.`.].7Xb d s t F.oX`.`.`.].7Xg K a 1 7X(.'.'.'.'.].(.].(.`.`.`.].(.(.`.'.'.'.oX",
"'.(.'.'.'.(.'.'.'./.'.'.'.'.'.'.].'.(.].'.].7XH.3 2 < o &X+X&X].].+X7XZ > 9 # ) =X@X'.].].`.].'.].`.].'.`.].'.'.'.'.'.'.",
"'.@X(.'.'.'.'.'.'.oX'.'.'.'.oX'.(.`.].@X].`.Z 3 z < % # F.Q 1.Q A A ) V % p z # ) U.!.(.@X@X'.'.`.].(.(.(.@X'.'.'.`.`.oX",
"'.'.'.'.oX/.oX'.'.'.oX'.'.'./.'.].'.U.B c b < $ X @ % 3 B m m N N N N B @ 3 0 3 - m b c b A '.'.`.'.].(.'.(.'.'.`./.oX`.",
"oX'./.'./.oX'.'.'.'.'.'.'.'.'.(.`.].@X@X]._.^.U.U.U.U.H.H.F.F.F.F.D.D.F.J.Z N V D.U.!.(.&X'.'.`.'.'.'.'.'.'.'.(.'.`.oXoX",
"'.'.'.'.'.'.oX'.'.'.'.'.'.`.'.`.].'.'.'.'.'.'.'.oXoXoXoX$X@X$X@X&XoX+XoXoX+XOX+X&X'.@X'.`.].(.'.oX/.oX/.'.'.'.'.'.(./.'.",
"'.'.'.'.oX'./.'.'.'.(.].'.'.'.].`.`.(.(.(.'.'.'.'.'.(.'.'.'.(.(.'.'.oX'.'.'.oX`.'.'.'.'.`.].'.'./.'.'.oX'.(.'.'.'.'.`.oX",
"(.'.'.`.`.'.'.'.(.(.].'.'.'.(.].(.].].(.].'.(.'.'.'.'.@X(.'.(.@X'.'.'.'.'.`.].`.'.'.'.'.'.'.'.'.oX'.'.'.'.@X'.'.'._.oX'.",
"'.'.'.'.'.(.@X'.(.@X(.(.].(.(.`.].].(.'.(.(.'.@X(.'.'.'.'.'.'.'.'.'.'.'.'.'.@X'.'.'.'.'.'.'.'.oX'.'.'.'.oX`.'.'.'.'.oX`.",
"(.'.'.'.'.'.(.'.'.'.'.(.].'.].(.(.(.'.'.@X(.'.(.'.(.].'.`.'.'.'.'.'.'.'.(.'.(.'.(.'.'.'.'.'.'.'.'.'.'.'.`.oX`.'./.'.`.oX",
"@X(.'.@X(.(.@X'.(.(.].`.'.(.].(.@X(.'.'.'.'.'.'.'.'.(.(.'.'.'.'.'./.oX/.'.'.'.'.'.'.'.oX/.'.'.'.'.'.oX/.'.`.'.'.'.oXoXXX",
"(.'.'.(.@X'.(.(.].].`.].(.@X(.(.(.'.'.(.'.'.'.'.'.'.(.@X'.'.oX'.`.oX'.].'.'.'.'.'.'.]./.'.'.oX'.oX`.oX'./.oX'._.`.`.`._."
};
