/* XPM */
static char *pers_up_2___copia1732177502[] = {
/* columns rows colors chars-per-pixel */
"60 60 208 2 ",
"   c #090A09",
".  c #0E0E11",
"X  c #141414",
"o  c #181716",
"O  c #181718",
"+  c #1C1C1B",
"@  c #26170C",
"#  c #241C17",
"$  c #26221E",
"%  c #372319",
"&  c #1B1F23",
"*  c #211F21",
"=  c #1D2326",
"-  c #132432",
";  c #242322",
":  c #292624",
">  c #292727",
",  c #2B2B26",
"<  c #25292C",
"1  c #2C2C2B",
"2  c #352B27",
"3  c #31312D",
"4  c #3E302A",
"5  c #2C2E30",
"6  c #312F30",
"7  c #343433",
"8  c #393736",
"9  c #3A3936",
"0  c #36373A",
"q  c #3D3D3A",
"w  c #512C16",
"e  c #673815",
"r  c #452C24",
"t  c #433830",
"y  c #653F33",
"u  c #42413E",
"i  c #49443C",
"p  c #57433A",
"a  c #72582A",
"s  c #403E42",
"d  c #325576",
"f  c #454442",
"g  c #494947",
"h  c #564D44",
"j  c #5A5249",
"k  c #555652",
"l  c #5C5955",
"z  c #6B5346",
"x  c #745648",
"c  c #615C59",
"v  c #62625D",
"b  c #7A6A5C",
"n  c #686765",
"m  c #6A6966",
"M  c #6B6A66",
"N  c #6D716B",
"B  c #73726E",
"V  c #797875",
"C  c #915019",
"Z  c #AE651F",
"A  c #965A25",
"S  c #A15E24",
"D  c #AF6425",
"F  c #B16623",
"G  c #A56D58",
"H  c #8B7260",
"J  c #837D77",
"K  c #87827D",
"L  c #9F8877",
"P  c #B28976",
"I  c #D4825C",
"U  c #D18B73",
"Y  c #E99A7F",
"T  c #105D8D",
"R  c #245B8D",
"E  c #1B659C",
"W  c #2A648A",
"Q  c #2B6B97",
"!  c #356F98",
"~  c #377499",
"^  c #1B6FAD",
"/  c #1072B2",
"(  c #286DA3",
")  c #2674AA",
"_  c #2B74A9",
"`  c #2B75AD",
"'  c #3077A5",
"]  c #2D77B2",
"[  c #2279B5",
"{  c #2C7AB3",
"}  c #2B7DBB",
"|  c #307AB3",
" . c #426889",
".. c #407190",
"X. c #557D95",
"o. c #1F80B6",
"O. c #3489BB",
"+. c #59869D",
"@. c #66828E",
"#. c #678598",
"$. c #7C8E97",
"%. c #4989A9",
"&. c #578CA9",
"*. c #5699B8",
"=. c #6C95A6",
"-. c #6A97AD",
";. c #7493A7",
":. c #58A4BD",
">. c #6AA3BA",
",. c #73A6B0",
"<. c #298BC6",
"1. c #338EC7",
"2. c #3996C9",
"3. c #3E9AD4",
"4. c #34A2D2",
"5. c #3BA7D6",
"6. c #38B3E7",
"7. c #439BCB",
"8. c #4F9CCA",
"9. c #53A1C1",
"0. c #59A4C4",
"q. c #47A7D9",
"w. c #45AADA",
"e. c #51A7D4",
"r. c #4AB1DE",
"t. c #44ADE6",
"y. c #44B5E7",
"u. c #4DB5E5",
"i. c #4DB9E7",
"p. c #4DBCEB",
"a. c #54B9E7",
"s. c #52BDEB",
"d. c #4CBFF1",
"f. c #54BEF0",
"g. c #4FC1ED",
"h. c #55C1ED",
"j. c #4BC4F8",
"k. c #54C3F2",
"l. c #5AC4F2",
"z. c #5DC8F5",
"x. c #73CBEC",
"c. c #62C8F8",
"v. c #74DCF3",
"b. c #8B8985",
"n. c #898987",
"m. c #989189",
"M. c #908F92",
"N. c #879498",
"B. c #979B99",
"V. c #A99385",
"C. c #AF9B94",
"Z. c #A3A39D",
"A. c #AAA298",
"S. c #8A9BA7",
"D. c #939EA9",
"F. c #87A2A9",
"G. c #99A4A6",
"H. c #93ABB3",
"J. c #A5A5A2",
"K. c #ABAAA5",
"L. c #A3A9A9",
"P. c #AFAEAB",
"I. c #B5ADA4",
"U. c #B2B0A6",
"Y. c #BBB4A7",
"T. c #B3B2AC",
"R. c #AEB7B5",
"E. c #B6B5B1",
"W. c #B9B7B3",
"Q. c #B6BAB4",
"!. c #BBB9B3",
"~. c #BEBDB9",
"^. c #C08F83",
"/. c #ED9E85",
"(. c #D3AE99",
"). c #F1AC8F",
"_. c #E9B598",
"`. c #C6BAAE",
"'. c #C2B5B1",
"]. c #C3BDB4",
"[. c #C9BEB3",
"{. c #C1BFBA",
"}. c #D4BFB4",
"|. c #EDBDA4",
" X c #BCC1BC",
".X c #C5C1B5",
"XX c #CAC1B4",
"oX c #C3C3BD",
"OX c #CBC6BB",
"+X c #D3C4B1",
"@X c #EAC3A4",
"#X c #F8C6A7",
"$X c #FAD8B7",
"%X c #FED9B5",
"&X c #FEDCBB",
"*X c #8EBDD3",
"=X c #A1BCC6",
"-X c #BEC4C3",
";X c #86DCF4",
":X c #93E3F7",
">X c #C5C5C2",
",X c #C9C7C2",
"<X c #C5CBC5",
"1X c #CACAC4",
"2X c #CCCCC9",
"3X c #D0CEC9",
"4X c #FFE4C5",
"5X c #FFEBC7",
/* pixels */
"!.!.'.!.!.!.!.'.!.!.!.Y.Q.!.!.~.!.Q.!.!.Q.!.!.].!.!.!.!.!.W.!.!.!.!.Q.!.!.!.Y. X!.!.`.!.!.!.!.!.!.W.!.!.!.!.!.!.Q.!.!.~.",
"~.!.!.!.'.!.!.!.!.!.!. X!.!.!.Q.!.!.Q.Q.!.!.!.!.!.'.!.!.!.!.Q.!.!.!.!.!.!.!.!.!.Y.!.!.!.!.!.!.'.!.!.!.!.!.!.!.!.Q.!.!.!.",
"W.W.!.!.'.!.!.!.!.!.!.!.Q.Y.Q.!.Q.!.~.!.!.!.!.!.!.'.!.!.Q.!.!.!.!.!.!.!.!.!.!.!.!.!.!.!.`.!.!.!.'.`.!.!.!.!.!.'.Y.!.!.!.",
"~.W.!.!.!.!.!.'.!.!.!.!.!. X!.Q.~.!.!.!.!.!.!.!.!.!.!.!.W.!.Q.!.!.!.!.!.!.!.!.!.!.!.`.!.!.!.!.!.!.!.!.!.W.!.!.!.!.!.`.'.",
"W.W.].!.!.'.!.!.!.!.'.!.Q.!.!.Q.W.~.!.!.!.~.Q.!.Q.!.!.!.!.~.W.Q.!.!.!.!.!.!.!.!.!.!.!.!.!.!.!.!.!.`.!.!.!.!.!.!.!.!.!.!.",
"!.~.!.!.!.!.!.!.!.!.!.!.!.!.!.!.W.W.W.!.!.D.T.XX.X!.!.!.Q.!.W.~.!.!.!.!.!.!.!.!.!.!.!.!.!.!.!.!.!.!.!.!.!.!.!.!.W.`.'.!.",
"!.!.!.!.!.!.!.!.!.!.!.'.!.!.!.!.~.W.~.!.!.J./ 0.F.T.[.'.D.L.~.W.!.Y.!.!.!.`.!.!.!.!.!.!.!.!.!.!.!.!.!.!.!.!.Y.!.!.!.!.!.",
"W.~.!.!.!.!.!.'.!.!.!.!.!.!.!.].S.'.`.`.].+X%.j.j.w.0.I.,.*.}.{.N..X!.!.!.!.!.Q.Q.!.`.!.!.!.!.!.!.!.!.`.!.!.!.!.!.'.!.'.",
"W.W.W.!.!.!.!.`.!.!.!.!.!.!.!.!.>.5.0.0.0.>.&.2.f.p.f.y.&.j.=.OX' [.!.!.!.!.!.!.!.!.!.!.!.!.Y.!.'.'.!.!.!.'.!.'.!.'.!.!.",
"~.W.!.!.!.!.!.!.!.!.!.!.!.!.!.!.`.4.j.g.g.p.k.r.u.s.s.s.t.r.d.X.t.B.].!.!.!.!.!.!.!.!.!.!.!.!.!.!.!.'.!.!.!.!.!.!.!.'.!.",
"!.!.!.!.!.!.!.!.`.!.`.!.!.!.!.!.!.K.w.d.p.s.s.s.s.s.s.u.l.q.f.7.s.! OX!.!.Q.!.!.!.!.!.!.!.!.`.!.!.`.!.!.!.'.W.~.].!.!.!.",
"!.!.!.!.Y.!.'.!.!.!.!.!.!.!.!.Q.].+XN.5.p.s.p.h.s.s.u.2.1.p.f.w.u.Q F.P.!.!.!.!.!.!.!.Q.!.`.!.!.!.!.!.!.!.!.!.!.!.!.!.'.",
"!.!.!.Q.!.!.'.!.!.!.!.!.!.!.].[.G.9.d.p.s.s.s.s.a.a.s.s.f.a.f.a.2.^ ..!. X!.Q.Y.!.Q.Q.!.!.!.!.!.!.!.!.!.!.!.!.Q.!.!.!.!.",
"!.!.!.!.!.!.!.!.!.!.`.!.!.[.X.4.j.j.p.p.h.a.p.p.p.a.s.s.i.f.s.s.{ ( ! R.`.!.Q.!.!.Y.!.!.!.!.!.!.!.'.!.!.!.!.!.W.!.!.!.!.",
"!.!.Q.!.!.!.!.!.'.'.!.!.!.].[.Z.=.O.i.p.x.;Xg.h.s.h.a.s.w.q.l.s.u._ _ Q .XY.Q.!.!.!.!.!.!.Q.!.`.!.!.!.Y.!.!.!.~.!.!.!.!.",
"!.!.!.!.!.!.!.`.!.!.!.!.W.!.].I.9.k.a.h.:Xy.v.x.s.p.a.v.u.7.t.q.3._ ' [ #..XQ.!.Q.!.!.Q.!.!.Q.!.!.'.!.!.!.!.!.Q.!.!.!.!.",
"!.!.W.!.!.!.!.!.!.!.Y. X XXXZ.r.k.h.g.h.i.p.p.p.s.k.q.<.[ u.z.` ] ] ` R T J.!.!.!.!.!.!.!.!.!.'.!.!.!.!.!.!.!.!.!.!.!.!.",
"!.!.!.!.!.`.!.'.`.!.Y. X XF.6.k.k.r.u.g.g.s.p.h.p.k.1.} } z.z.| _ _ _ _ I.A.!.!.'.!.!.Q.!.!.!.!.!.'.!.!.!.!.!.W.!.!.!.!.",
"Y.!.!.!.'.!.!.!.!.!. XY.Y.$.,.@.~ r.g.i.h.s.a.h.h.5.7.} 7.2.1.| _ _ ) ^ D.].!.!.!.Q.!.!.!.!.'.!.'.!.!.'.!.!.!.!.!.!.!.!.",
"!.Q.!.!.!.!.!.!.!.!.Y.Y. X.X.XN.8.k.r.r.h.i.h.h.i.{ e.] } } } ] ` ` ) E =.].!.W.W.Y.!.!.'.!.!.!.!.!.!.!.!.!.!.`.!.!.!.!.",
"!.Q.!.!.!.!.!.`.!.!.!.!.Y.!..X$.2.k.O.z.h.e.h.l.{ 7.O.{ ] ] ] ] ` !  .^ +.[.!.!.!.!.!.!.!.!.'.!.'.'.!.!.!.!.!.!.!.!.!.!.",
"!.Q.!.!.!.!.!.!.`.!.!.!. X!. Xm.9.z.T c.q.i.l.2.O.` ` { ] ] ] ] | W I ;.X.{.!.!.!.!.!.!.!.`.!.!.!.!.'.!.!.!.'.!.Y.!.`.!.",
"W.~.!.!.!.Y.!.!.!.!.!.!.!.!.Y.`.>.5.T z.O.z.q.' ] ] { { ] ] ] ] { ..U {.[.!.!.!.Y.!.!.!.!.!.`.!.'.!.!.!.!.!.!.`.!.'.!.!.",
"W.!.!.Q.!.!.'.'.!.!.!.`.!.!.!. XF.o.b.r.7.q.( o.{ { { { { { | ] { d P ~.!.!.!.!.!.Q.!.!.!.!.!.!.!.!.!.!.!.!.!.!.!.!.!.!.",
"Q.~.~.W.W.!.!.!.'.!.!.'.!.!.!. XG.$.}.5.O.) ] { { { { O.} ] { ` | X.M.=X[.'.!.W.!. X!.!.!.!.!.!.!.!.`.!.!.!.`.!.!.!.!.'.",
"~.W.W.W.Q.W.!.!.!.!.Q.!.!.!.!.!.Q.].XX*.o.{ [ { ^ } W W W ( <.d E X.3X'.~.'.~.!.!.!.!.!.!.!.!.!.!.'.!.!.!.!.!.!.`.!.!.!.",
"W.Q.~.~.~.!.!.!.!.!.`.!.!.!.!.Q.Q.~..X&.E ^ F.s o $ % % % @ - h t n M.{.W.!.!.W.Q.!.!.!.!.!.!.!.!.!.!.!.!.!.W.!.!.!.!.Q.",
"E.W.W.W.Q.!.!.W.!.!.!.!.'.!.!. XQ.!.'.W.~ F.b = 2 9 g f u 8 ; = , + 6 2XW.W.~.W.!.!.Y.!.!.!.Y. X!.!.!.!.!.!.!.!.!.!.!.!.",
"W.~.~.!.W.W.!.!.Y.!.'.!.Q.!.!.!.!.!.!.1Xb.$ 3 9 f q u f q 8 3 q 6 r # N =XW.~.!.Q.!.!.Q.Y.!. X!.!.!.Q.!.Y.Q.!.!.!.!.Q.!.",
"W.W.W.!.~.W.!.!.!.!.!.!.!.!.!.`.!.!.!.K.O 0 u f q f f q q 7 f 7 x 5XG k OXW.Q.!.!.!.!.!. X!.Y.Q.Q.!.!.!.!.!.Q.Q.!.Q.!.!.",
"W.Q.W.!.!.!.!.!.`.!.!.!.!.!.!.!.!.!..XQ.U p q f f q u 9 9 ; f 2 _.4X|.J OX!.!.!.Q.!.!.Q.Y.Q. X!.!.!.!.!.!.!.!.!.!.!.!.Q.",
"W.~.!.!.!.!.!.!.!.!.!.Q.!.!.!.!.!. XQ.(.@X%X1 f i f 8 q 1 ; 1 y ).&X_.^.~.!.!.!.Q.!.!.!. XQ.Y.!.Q.!.Q.!.!.!.!.~.!.!.!.!.",
"Q.W.~.W.!.!.!.!. XY.!.!.!.!.!.!.!.~.I.%X&X#Xp 0 f q q 3 s ; ; r U &X&X).A.~.!.Q.Q.!.!.!.!.!.Q.!.!.!.!.Q.!.!.].!.!.'.!.!.",
"~.W.W.W.!.!.!.!.Y.!.!.Y.`.!. X!.!.Z.@X&X_.I t 7 8 q 8 8 f s : = + 4X$X|.V.>X!.!.!.!.!.!.!.!.!.!.!.!.!.!.!.'.!.!.!.!.!.!.",
"W.W.~.W.!.!.!.!. X X!.!.!.Q.!.Y.Z.|.&X@X/.V.B.+ q 9 ; 7 7 0 , ; . (.&X$X/.m.-X~.~.!.!.Q.!.!. XY.Y.!.!.!.!.'.!.!.Q.!.!.!.",
"Q.~.W.W.!.!.!.!.!.Y.Y. X!.!.OXu i 4X@XU V.-Xn.< < & + = < = = = . C._._.#X/.Z.>X!.!.'.!.!.!.!.!.!.!.!.Q.!.!.Q.!.!.!.`.!.",
"~.W.W.!.!.!.Q.!.Q.!.!.!.!. XZ.3 0 g _.G -XoXn e C A A A A A C % X n.(.$X$X).U N .X!.!.!.!.!.!.!.!.!.!.`.!.!.!.!.!.Q.!.`.",
"W.W.!.!.!.Q.!.!.!.!.!.!.!.OXk 3 t 8   J oX>Xb C D D D F F S C r # B I._.&X@X).2 !.!.!.!.Q.!.!.!.!.`.!.!.!.!.Q.!.!.Q.!.!.",
"W.W.Q.!.!.!.!.!.!.!.!.!. X!., 7 > + k ,XW.>XB ; < 5 < < 3 < , < X k 2XL _.5XL O V oX!.!.!.!.!.!.!.!.!.!.!.Q.Q.!.!.!. X!.",
"W.W.Q.W.!.!.!.!.!.!.!.!.A.H q 3 O f 2X~.~.>Xl q g s g g g q g t # X ~.<Xj 2 , 1 o <X~.!.!.!.Y.].!.!.!.!.!.!.!.!.!.!.!.!.",
"!.Q.Y.!.!.`.!.!.!.Y.!.>Xa l 1 + z 3 T.~.!.~.3 t f f g f g q f g ; o K oXZ.5 , 8 * u <X!.!.!.!.!.!.!.!.!.!.!.!.!.!.!.!.Y.",
"Q.!.Q.!.!.!.!.!.!. X!.OXa a 5 + L 1X~.~.oXB 3 9 9 0 7 7 7 1 5 5 ; * o oX,Xl & f ;   OX!.!.!.!.!.!.!.!.!.!.!.!.!.!.!.!. X",
"!.E.!.!.!.!.!.].Y.!. X X,X=.W w P.Q.!.~.oXb.o + + + # O X ; ; $ ; ; o ].].C.i < . n oX!.!.!.!.!.!.!.!.!.!.!.!.!.!.!.Y.!.",
"!.!.Q.!.!.!.!.!.!.!.!.!.Y.:.S.a x -X!.!.>XN q 7 7 , & t B O q q 3 ; O V [.I.P z H OX!.Q.!.!.!.!.!.!.!.!.!.'.!.!. X!. X!.",
"!.!.!.!.!.!.!.!.!.!.!.!.L.+.+X>X!.Q.Q.~.<X7 f 9 ; ; X Z.1X9 , f f ; & ; OXQ.!.Y. XQ.!.Q.Q.!.!.!.!.!.!.!.!.!.!.!.Y.Y.Q.Y.",
"!.Q.!.Q.Q.Q.!.!.!.!.~.!.H.$.{.!.!.!.!.!.,X, f u : + q ,XQ.OX2 7 f 7 : o V .XQ.!.!.Y. X!.!.!.!.!.!.!.!.!.`.!.!.!.!. X!. X",
"W.Q.W.W.!.!.!.!.!.Q.-XK.*XP.~.!.!.Q.!.oXn., q 7 7 + f OX!. Xm., q 1 1 + v .XQ.Y.Y. X!.!.!.!.!.!.Q.!.!.!.Y.!.Y.!.!.!.Q.!.",
"~.W.~.!.!.Q.!.!.!.!.!.~.-.].!.!.!.!.!.!.K.; = ; = X J {.W.~.J.# : : * X B. XQ. XY.!.!.Q.!.!.!.!.!.!.!.!.!.!. X!.!.Q.!.!.",
"W.~.!.W.!.!.!.!.Y. XY.=XG. XY.!.!.!.!. XOXj r 4 @ j 1XQ.!.!.>XD.: : w @ oX!.!.!.!.!.!.Q. X!.Y. X!.!.!.!.!.Q.!.!.!.!.!.!.",
"Q.W.!.!.Q.!.~.Q.Q.Y.L.F.Y. X XQ.Y. X!.Y.OXk 2 t # l OX!.!.!.!.2Xf r 3 + g 2XQ.!.!.!.!.!.Q.!.!. X!.!.Y.!. X!.!.!.!.!.!.!.",
"!.!.!.Q.!.!.!.Q. X XZ.U. X!.Y.Y. X!. X X<XM 7 9 . B.OXoXoXoX{.1XM.3 q $ . L.>X!.!.Q.!.Q.!.!.Q.Y.!.Y. X X!.!.!.`.!.!.`.!.",
"!.Q.!.!.!.!.!.!.U. X XY.!.!. X X!.Q.U.Z.Z.u 9 7 X N N N M n M B K 3 q 3 O   B T.I.Q.!.!.!.!.!.!.!.!.!.Y.!.!.!.Y.!.!.!.!.",
"Q.!.Q.!.!.!.!.!.!.!.!. X!.!. XK B N m l v g $ + $ v v v v v l n n 7 ; < 7 f n B B b.T.!.!.Q.!.!.!.!.!.!.!.!.!.!.!.Y. X!.",
"!.!.!.!.!.!.!.Q.!.!.!.!.!.!.Y. X~.oX>XoXoXoX,XoX!.U.T.U.P.P.T.T.P.!.~.>XOX>XoX{..X X X!. X!.!.!.!.!.!.!.!.!.!.!.Y. X!.Y.",
"!.W.!.!.!.!.!.!.!.!.!.Y.!.!.Y. XW.~.!.!.!.!.Q.!.!.!.!. X!.!.~.!.!.~.!.!.E.!.!.!.!.!.!.!.Y.!.!.!.!.'.!.!.Q.Q.!.!. XY.!.!.",
"Q.W.!.!.!.!.!.!.!.!.!. X!.Q. XY.~.W.].!.!.!.~.!.Q.Q.!.!.!.!.Q.Q.!.!.!.!.!.!.!.!.!.!.!.!.Y. X!.Q.!.!.!.!.!.!.!.!.Q.Y. XY.",
"W.W.W.W.!.!.!.!.!.!.!.!. XY. X XW.~.W.W.W.!.~.~.W.!.!.!.!.Q.!.!.!.!.!.!.!.!.!.!.!.!.!.!.!.!.!.!.!.!.Q.!.!.Q.!.Q.!. XY.!.",
"!.!.W.Q.!.!.!.!.!.!.!.!.Y.Q.Q.Y.W.!.W.!.Q.~.W.W.!.Q.!.Q.!.Q.!.!.Q.!.!.!.!.!.!.`.!.!.!.!.!.!.!.!.!.!.Q.!.!.!.!.!.!.!.!.!.",
"W.W.~.W.Q.~.!.!.~.!.!.Q.Y. XQ.!.Q.!.!.!.Q.!.!.~.W.!.!.!.!.!.W.W.!.!.'.!.!.!.!.!.!.Q.!.!.!.!.!.!.!.Q.!.~.!.!.!.!.!.!.!.!.",
"Q.~.!.W.!.!.!.!.!.!.!.!.!.!.!.!.!.!.!.!.!.!.!.!.!.!.!.!.!.!.!.!.!.!.!.!.!.!.!.!.Q.!.!.!.!.!.].!.!.!.!.Q.!.!. X!. X!.!. X"
};
