/* XPM */
static char *pers_l1732184299[] = {
/* columns rows colors chars-per-pixel */
"60 60 224 2 ",
"   c #0B0C16",
".  c #251E1D",
"X  c #37231D",
"o  c #0C1528",
"O  c #131B29",
"+  c #081A33",
"@  c #161E33",
"#  c #261D2A",
"$  c #1C212D",
"%  c #1D2433",
"&  c #14233A",
"*  c #1B243B",
"=  c #362B2B",
"-  c #342A2C",
";  c #282B36",
":  c #242C3C",
">  c #362E32",
",  c #2C313E",
"<  c #373439",
"1  c #4F1C0C",
"2  c #4B2F1B",
"3  c #792D09",
"4  c #4D3C2F",
"5  c #553D26",
"6  c #463536",
"7  c #744339",
"8  c #7C5438",
"9  c #0C2849",
"0  c #192D43",
"q  c #143052",
"w  c #262E41",
"e  c #2B3444",
"r  c #2B3448",
"t  c #333A47",
"y  c #283C56",
"u  c #333D52",
"i  c #343F5A",
"p  c #0C3768",
"a  c #483D47",
"s  c #3C414D",
"d  c #3C4657",
"f  c #17477B",
"g  c #2D466A",
"h  c #3C4C64",
"j  c #374968",
"k  c #3E516F",
"l  c #2A4F76",
"z  c #48464A",
"x  c #574A48",
"c  c #454C56",
"v  c #4F5052",
"b  c #5A575A",
"n  c #725245",
"m  c #655A58",
"M  c #7C5951",
"N  c #69635C",
"B  c #766559",
"V  c #444C63",
"C  c #48566B",
"Z  c #54556A",
"A  c #485B75",
"S  c #515E76",
"D  c #4C627E",
"F  c #57667A",
"G  c #6D6963",
"H  c #696968",
"J  c #716966",
"K  c #79726B",
"L  c #66747D",
"P  c #787774",
"I  c #973A12",
"U  c #AF5212",
"Y  c #8C593A",
"T  c #A45D25",
"R  c #9B6637",
"E  c #CE5304",
"W  c #CF6F18",
"Q  c #EF720D",
"!  c #CC6825",
"~  c #86594D",
"^  c #956B54",
"/  c #AA6649",
"(  c #B07051",
")  c #917365",
"_  c #837E78",
"`  c #B27666",
"'  c #C26B4B",
"]  c #FF890D",
"[  c #FF8813",
"{  c #87837A",
"}  c #99897A",
"|  c #AD8674",
" . c #E5845B",
".. c #C68564",
"X. c #D18E6C",
"o. c #0E4781",
"O. c #154D84",
"+. c #1B5289",
"@. c #1D538A",
"#. c #155594",
"$. c #245485",
"%. c #215A94",
"&. c #1C649B",
"*. c #316A95",
"=. c #1770AE",
"-. c #256BA9",
";. c #2478B7",
":. c #496685",
">. c #556585",
",. c #566A83",
"<. c #5B6C84",
"1. c #5E7088",
"2. c #466E91",
"3. c #5B7792",
"4. c #616F84",
"5. c #687986",
"6. c #63748C",
"7. c #767F81",
"8. c #677892",
"9. c #0877CE",
"0. c #2A82BC",
"q. c #3485BC",
"w. c #768280",
"e. c #798996",
"r. c #4E8FB6",
"t. c #6C93AC",
"y. c #1686D0",
"u. c #2789C7",
"i. c #338ECB",
"p. c #2997D7",
"a. c #3499D5",
"s. c #1A94E5",
"d. c #1599F8",
"f. c #2A9AE4",
"g. c #17ABF5",
"h. c #29A8EA",
"j. c #34A3E3",
"k. c #35A9E5",
"l. c #3AA8E5",
"z. c #3AACEB",
"x. c #32B0EE",
"c. c #3CB1EE",
"v. c #24ACF4",
"b. c #3BAFF3",
"n. c #2CB7FA",
"m. c #3CB4F3",
"M. c #37B6F8",
"N. c #429DCD",
"B. c #529FC7",
"V. c #4EA8D3",
"C. c #56B6DB",
"Z. c #6AB4CC",
"A. c #44B5EC",
"S. c #51BAEB",
"D. c #44B7F4",
"F. c #50BDF2",
"G. c #49C3F6",
"H. c #52C5F2",
"J. c #70CAE7",
"K. c #888B86",
"L. c #918E86",
"P. c #9D8E8D",
"I. c #96978E",
"U. c #858A93",
"Y. c #89949B",
"T. c #999C96",
"R. c #B79886",
"E. c #B39A8D",
"W. c #A49D93",
"Q. c #9DA19D",
"!. c #BAA38C",
"~. c #A8A599",
"^. c #B7AA9A",
"/. c #B7B19E",
"(. c #879CA2",
"). c #87A2AC",
"_. c #98A3A4",
"`. c #90AEB3",
"'. c #A3ABA6",
"]. c #ADABA3",
"[. c #B4AEA1",
"{. c #ADB2AC",
"}. c #B5B2A5",
"|. c #BAB4A6",
" X c #B3B3AC",
".X c #BAB5AA",
"XX c #BCB9AD",
"oX c #AAB4B3",
"OX c #B6B8B1",
"+X c #BABAB2",
"@X c #D9A886",
"#X c #C5AD98",
"$X c #C8B59F",
"%X c #DAB89A",
"&X c #E8B191",
"*X c #F7B792",
"=X c #C1B6A5",
"-X c #C8BBA7",
";X c #C2BBAC",
":X c #D7BEA4",
">X c #C2BEB2",
",X c #BFC1B7",
"<X c #F8C998",
"1X c #CDC3AB",
"2X c #C4C2B4",
"3X c #CBC4B4",
"4X c #C7C6BB",
"5X c #D4CCBE",
"6X c #D4D0BB",
"7X c #F1CAA2",
"8X c #E7D0AD",
"9X c #FFD5AB",
"0X c #F5D4B0",
"qX c #FEDDBA",
"wX c #FFE7BB",
"eX c #89BCD3",
"rX c #BEF5FE",
"tX c #C8CFCB",
"yX c #D1CEC4",
"uX c #D9D6C5",
"iX c #FFE4C2",
"pX c #FFEDC7",
"aX c #FFF4C4",
"sX c #FFFAD5",
/* pixels */
"+X>X+X+X+X+X+X+XoX+X+X+X+X+X+X+X+X+X+X+X+X+X+X+X+X+X+X+X+X+X+X+X+X+X+X+X+XOXOX+X+X+X+X,X+XOX+X,XOXXX+X+XOX+X+X+X+X+X>X+X",
">X+X>X+XOX+X+X+X+X+X+X+X+X+X+X+X+X+X+X+X+X+X+X+X+X+X+X+X+X+X+X+X+XOX+X+X+X+XXXOX+X+XOXOX+X+X+X+X+XOXXXOX+X+X+XOX+X>X+X>X",
"+X>X+XOX+X+X+X+X+X+X+X+X+X+X+X+X+X+X+X+X+X+X+X+X+X+X+X+X+X+X+X+X+X+X+X+X+X+X+X,XXX+X+X+XOXXX+X+X+X+X+X,X+X+X,XOX+X=X+X+X",
">X+X+XOX+X+XOX+X+X+X+X+X+X+X+X+X+X+X+X+X+X+X+X+X+X+X+X+X+X+X+X+X+X+X+X+X+X+XXXOXOX+X+X+X,XOX+X+X+X+X+XOX+X+XXXOX+X+X>X>X",
">X>X+X+X+X+X+X+X+X+X+X+X+X+X+X+X+X+XoX+X+X+X+X+X+X+X+X+X+X+X+X+X+X+X+X+X+X+X+X+X,XOXOX+X+X+X+X+X+XXXOX+XOXXX+XOX+X+X+X+X",
"+X+XOX XOX+X+X+X+X+X+X+X+X+X+X+X+X+X+X+X+X+X+X+X+X+X+X.XoX+XoXoX.X+X+X+X+X+X+X+XOXXXOX,X+X+X+X+X+XOX,X+X,XOX+X+X+X+X+X+X",
">XOX+X+X+X+X+X+X+X+X+X+X+X+X+X+X+X+X+X+X+X+X+X+X].]..X.X+X3X).i.'.=X{.;XOX+X+X+X+X+X+X+X+X+X,XOXOX+X+X+X+XOX+XOX+X+XOX>X",
"+X>X>X+X+X+X+X+X+X+X+X+X+X+X+X+X+X+X+X+X+X+X+X+X_.V.eX)..XyXoX9.V.XXY.'.XX+X+X+X+X+X+X+XOX+XOXXX,X+X+X+X+XXXOX,X+X+X+X+X",
">XOX+X+X+X+X+X+X+X+X+X+X+X+X+X+X,XXXOXXXOXXXQ.].$Xf.D.F.3.Z.z.b.p.P.p.e.+X X+X+XOX+X+X+X+X+X+XOXOX+X+X+X,XOXXXOX+X+X+X+X",
"OX>X+X+X+X>X+X+X+X+X+X+X+X+X+X+XOXOXXX,XXX,XB.'.:Xt.v.f.n.M.b.j.;.f.s.>.-XOX=X}.XX+X+XOX+X+X+X+XXXOX+X+XOX+X+X+X+X+X+X>X",
"+X>X+X+X>X+X>X+X+X+X+X+X+X+X+X+XXXOXOXOX,X.Xa.C..X8.v.z.z.z.A.z.b.b.=.r.B.j.=.U.1X X+X+X+X,X+X+X+XOX+X+X+X+XOX,X+X+X>X+X",
"+X+X>X+X+X+X+X+X+X+X+X+XoX+X+X+X+X+XOXOX,X$X).g.j.N.j.D.z.j.l.b.b.z.b.b.M.s.<.-X.X}.+XXXOXOXXXOX+X,XOX+X+XXXOX+X+X+X+X>X",
"+X+X>X+X+X+X-X+X+X+X+X+X+X+X+X+X+XOX,XOX1X^.).0.x.x.l.z.z.b.l.z.z.D.A.A.c.@.1X/.|.|.+X+X+X+X+X,X+X+X+X+X+X+X+X+XOX;X>X>X",
">X+X+X+X+X>X+X+X&X+X+X+X+X+X+X+X+X+XXX=X*.g.n.x.x.h.H.H.S.A.x.a.l.;.j.j.#.F I.1X+X+XOX+X+XOX+XOX+X+XOXXX+X+X+X+X+X+XOX>X",
">X+X>X>X>X+X>X+X+X+X+X+X+X+X+X+X+X+X+XXX1Xw.=.G.J.rXJ.H.D.l.z.D.0.A.F.-.f g eXr.T.=X+X+X+X+X,XOXOX+X+XOXOXXX+X+X+X+X>X+X",
"+X+X+X+X+X+X+X>X+X+X+X+X+X+X+X+X+X+XOXXX/.Z.v.J.C.S.c.p.k.G.a.;.%.u.-.p.D.b.s.q.'.XXOX+X+XXXOX+X+X+X+X,X,XOX+XOX+X+X+X>X",
"+X>X+X+X+X>X+X+X+XXX,X+X+X+X+X+X+X+X+X-Xr.q.p.y.p.;.n.p.l.m.i.p.a.f f i.-.-.$./.3XXX+X+X+X+X+X+X+X+X+X+X+X+X+X+X+X+X>X+X",
">X+X>X+X+X+X>X+X+XOXOX+X+X+XOXXX+XOXXX~.).T.s.*.q.p.-.v.0.A.M.&.u.0.O.+.+.@.O.$.T.XXOX+X+XOX+X+X+X+X+X+X+X+X+X+X+X>X+X+X",
"+X+X+X>X+X+X+X+X>X+XOX+X+X+X,XOX+XOXXX.X$X`.9.C / p.j 2.u.;.*.&.- p +.@.$.f :.T.=X.X+X+X+X+X+X+X+X+X+X+X+X+X+X+X+X+X+X>X",
"+X+X+X>X>X+X+X+X+X+XXXOXOX,XOX+X,X+X+X+X=X`.#.q x R.;   : d.E.l  .F #.$.O.:.}.1X|. X+X+X+X+X+X+X+X+X+X+X+X+X+X+X+X+X+X+X",
">X+X>X+X>X+X>X+X+X+X+X+X+X+X+X+XOXXX,XOXXX}.3.p p qX| ;.t.s.^.2.X.D #.@.f $.e.1X.X+X+X+X+X+X+XOX+X+X+X+X+X+X+X+X+X+X+X+X",
"+X+X+X>X+X>X+X+X>X+X+X+X+XOX+X+X+X+XOX+X+X;X_.L U.qXiXtXyXy.@X*.k O.@.o.,./.-X XXX+XOX+XOX+X+X+X+X+X+X+X+X+X+X+X+X+X+X+X",
"+X+X$X+X>X+X>X+X+X+X+X+X+X+X+X+XOX+X+X+X+XXXOX^.7XqXqXqXwX&.<Xf o.%.p l 5.XX.X+XOX+X+X+X+XOX+X+X+X+X+X+X+X+X+X+X+X>X>X>X",
"+X>X+X+X+X>X+X>X+X+XOX+XOX,X+X+X+X+X+X+XOX+XXX}.#X7X0XiXpXR.7 Z 9 + P W.3X;X.X+X+X+X+XOX+X+X+X+X+X+X+X+X+X+X+X+X+X+X+X+X",
">X+X>X+X+X+X>X+X+X+X+X+X+X+X+XOXOX,X+X+X,X+X+XXX~.$X8X!.n Y ` M u U.8.9 o c 2XXX+X+X+X+X+X+X+XOX+X+X+X+X+X+X+X+X+X+X+X+X",
"+X>X+X>X+X>X+X+X+X+X+X+X+X+X+X+X+XOX+X+XOXOX+X+X+X>Xz o   ~ ` v e.e.e 7 # o 3XXX+XOX+X+X+X+X+X+X+XoX+X+X+X+X+X+X X+X+X+X",
"+X+X+X+XyX+X&X+X+XXXOX+X+XOX+X+X+X+X+X+XOXXX+X+X>X}.2 & O ^ a 4.(.w / *Xn 0 3X|.+X+X+X+XOX+X+X+X+X+X+X+X+X+X+X+XOX>XOX>X",
">X>X+X+X+X+X+X+XOX,XXX+X+XXX+X+X+XOXOX+X+X+XOX+X+X[.8 & @ # Z 5.V 7 sXsXX.H ;X|. X+X+XOX+X+XOX+X+X+X+X+X+X+X+X+X>X X>X+X",
"+X+X+X+X+X+X+X+X+XOX,X+X+XXX+XOX+X+X+X+X+X+X+XOX+XE.@XV S d 8.A u / ..7X9X%X[.|. X+X+X+X+XOX+X+X+X+X+X+X+X+X+XOX+X+X+X>X",
"&X+X+X+X+X+X+X+X+XXXOXXXOXOX,X+X+X+X+XOXOX+X+X,X~.0X` m >.4.>.F v 4 . iXqXiXE.>X=X+X+X+XOX+X+X+X+X+X+X+X+X+X+X+XOX+X>X+X",
"+X+X+X+X+X+X+X+XOXOX+X+X+X+XXX+X+X+X+X+X+X+X2XQ.#XsXX.~ h >.<.S c V @ m 0XpX&XK. X=X+X+X+X+X+X+XOX+X+X+X+X+X+X+X+X+X+X>X",
"+X+X+X#XyX+X+X+X,XOX+X+X+X+XOXOX,X+X+X+XOX,X XC } 9X' _ A 3.:.y g g 9 7.R.K g * U.>X X+X+X+XOX+XOX+XOX+X+XOX+X+XOXOX>X+X",
"+X+X+X+X+X+X+X+X+X+X+X+X+X+X+X+X+X+X+XXX|.2X) z q 6 K yXB < 6 M / T 1 | Y.9 ^ Y N 2X+X+X+X+X+X+X+X+XOX+X+X+XOX+X+XOX+X+X",
"+X+X+X&X+X+X+X+X+X+X+X+X+X+X+X+X+X+X+X}.XX}.4 ..z @ ~. X! E Q E Q U 3 ) uXH n z d /.+X.X+X+X+X+XOXXX+X+X+XOX+X+X+X+X+X>X",
"+X+X+X+X+X+X+X+X+X+X+X+X+X+X+XoX+XOXXX.X>X} y x ^ L.4X Xv U I > s r g t /.6Xb y $ P 2X|.+X+X+X+X+X+X+X+X+X+X+X+X+X+X+X>X",
"+X+X+X+X+X+X+X+X+X+X+X+X+X+X+X+X+X+XOXOXOX%X^.6 ~.2X;XY.V Q 3 v 2.A D d H 4XP ^ | ) XX|..X+XOX+X+X+XOX+X+X+XOX+X+X+X+X+X",
"+X+X+X+X+X+X+X+X+X+X+X+X+X+X+X+X+X+X+X+XOX..&X{ ;X|./.D R [ 1 n 3.,.F h s ].^.sXaX|  X|..X+X+X+XOX+X+X+XOX+X+XOX+X+X+X+X",
"+X+X+X+X+X+X+X+X+X+X+X+X+X+X+X+XOX+XOX+X=X/ ( } ,X|.Q.d W ] # A F 8.C ,.d w.%X&XwX&X( ,XOXXX+X+X+X+X+XOX+X+X+X+X+X+X+X>X",
"+X+X+X+X+X+X+X+X+X+X+X+X+X+X+X+X+X+X+X+X+XR.` E..X,XL ^ ] [ @ >.A D d F g C :X' &X/ ) 2XOX+XOX+X+X+X+XOX+X+X+X+X+X+X+X+X",
"+X+X+X+X+X+X+X+X+X+X+X+X+X+X+X+X+X+X+XOX+XOX+XXX|.2Xh 8 U [ O : s k A V e , ;XR.` | XXXX+X+X+X+X+X+X+X+X+X+X+X+X+XOX+X+X",
"+X+X+X+X+X+X+X+X+X+X+X+X+X+X+X+X+X+X+X+X,XOX|..X.X3X& w , < $ z L ,.6.<.<.+ 2XXX^. XXX+X+X+X+XOX+X+X+X+X+X+X+X+X+X+X X>X",
"+X+X+XoX+X+X+X+X+X+X+X+X+X+X+X+X+XOX+X+XXXOX|.|.XX>Xj d e : % I.I.F <.1.8.d { 2X|.+XOX+X+X+XXX+X+X+X+X+X+X+X+XOX+X+X+X+X",
"+X+X+X+X+X+X+X+X+X+X+X+X+X+X+X+X+X+X+X+X+XOXXX.X3XF ,.1.d % z 5X1XZ <.<.1.6.0  XXXXX+X+X+XXX,XOX+XOX+XOX+X+X+X+X+X+X+X+X",
"+X+X+X+X+X+X+X+X+X+X+XoX+X+X+X+X+X+X+X+X+X+XOXXX/.F 8.F e + { 3X>X~.h 6.6.1.C c ~.,XOX+X+X+XOX+XOX+XOX+X+X+X+X+X+X+X+X+X",
"+X+X+X+X+X+X+X+X+X+X+X+X+X+X+X+X+X+X+XOX+X+X+X+X=Xi <.F d : , XXXX5Xs <.8.h u : L.2XOX+X+X,XOX+X+X+X+X+X+X+X+X+X+X+X+X+X",
"+X+X+X+X+X+X+X+X+X+X+X+X+X+X+X+X+X+X+X+X+X+X+XOX3XK @ u t : * L.>X4XZ * r , ; < 4XOX,X+X+XOXOX+X+X+X+X+X+X+XOX+X+XOX+X+X",
"+X+X+X+X+X+X+X+X+X+X+X+X+X+X+X+XOX+X+X+X+XOX+XXX|.5Xu % : % z uXXX>XT.s % % ; e T.2X+XXX+XOX+X+X+X+X+X+X+XOX+XOX+X+X+X+X",
"+X+X+X+X+X+X+X+X+X+X+XoX+X+X+X+X+X+X+X+X+X+X+XXX|.;X|.- > # K 2XOXXX;XuX~., e - P 3X X+X+X+XOXXX+X+X+X+X+X+X+XOX+X+X+X+X",
"+X+X+X+X+X+X+X+X+X+X+X+X+X+X+X+X+X+X+X+X+X+X+X X.X>XW.> ; O L.,X+X+X+X+X4Xb = X K 2XXX,XOXOXOX,XOXXXOXOXXX+X+X+X+XOX+X+X",
"+X+X+X+X+X+X+X+X+X+X+X+X+X+X+X+X+X+X+X+X+X+X.X X4X'.J 6 > o _ 4X+X+X+X+X+X.X= z y _.,XOXOXOX+X+X+X+X,X+XOX+X+X+X+X+X+X+X",
"+X+X+X+X+X+XoX+X+X+X+X+X+X+X+XoX+X+X+X+X+X+X+X.X .T j w O o J 5X+X2X+X,X2XyX@ C Y Y =X,XXXXXOX+XOX+X+X+XOX+XOX,X+X+X+X>X",
"+X+X+X+X+X+X+X+X+X+X+X+X+X+X+X+X+X+X+X+X+X#XP.Z # 6 > a b m N J G G G G G K t 5 W U 2 +X,XOX+X+X+X+X+X+X+X+XXXOX+X+X+X+X",
"+X+X+X+X+X+X+X+X+X+X+X+X+X+X+X+X+X+X+X+X+X+X+XyX4X>X+X.X XE.].P.W.W.T.W.~.~./.{ L w.K.XX+X+XOX+X+X+XOX+X+X+X+X+X+XXX+X+X",
"+X+X+X+X+X+X+X+X+X+X+X+X+X+X+X+X+X+X+X+X+X+X+X+X+X+X+X+X+X+X+X+X+XXX2X,X+X+X+X2X3X4X,X+X+X+X+X+X+X+X+X+X+X+X,X+X+X+X+X+X",
"+X+X+X+X+X+X+X+XoX+X+X+X+X+X+X+X+X+X+X+X+X+X+X+X+X+X+X+X+X+X+X+X+X+X+X+X+XOX+X+X+XOXOXOXOX+X+XOX+X+X+X+X+XOXOXOX+X+X+X+X",
"+X+X+X+X+X+X+X+X+X+X+X+X+X+X+X+X+X+X+X+X+X+X+X+X+X+X+X+X+X+X+X+X+X+X+X+X+X+X+X+X+XOXXX,X+X+X+X+XOX+X+XOX,X+X+XXX+X+X+X+X",
"+X+X+X+X+X+X+X+X+X+X+X+X+X+X+X+X+X+X+X+X+X+X+X+X+X+X+X+X+X+X+X+X+X+X+X+X+X+X+X+X+X,XOXXXXX+X+X+X,XXXOX+XXX,XOX+X+X,XOX+X",
"+X+X+X+X+X+X+X+X+X+X+X+X+X+X+X+X+X+X+X+X+X+X+X+X+X+X+X+X+X+X+X+X+X+X+X+XOX+X+X+X+XOX+X+XOX,X+XOXOXXXOX,XOX+XXXOX+XOX+X+X",
"+X+XoX+X+X+X+X+X+X+XoX+X+X+X+X+X X+X+X+X+X+X+X+X+X+X+XoX+X+X+X+XOX,X+X+XOXXXOX+XXXOXOX+X+XOX+X+X+X+XXXOX+X+XOX+X+X+X+X>X",
"+X+X+X+X+X+X+X+X+X+X+X+X+X+X+X+X+X+X+X+X+X+X+X+X+X+X+X+X+X+X+X+XXXOX+X+X,X+X+X+XOX,X+X+X+X+X+X+X+X+X+X+XXXOX,X+X+X+X+X+X"
};
