/* XPM */
static char *_d71123740bb437ea740f76f8c96f70fCkiCrUs0LhhwiBoP[] = {
/* columns rows colors chars-per-pixel */
"60 60 183 2 ",
"   c #1D2538",
".  c #232835",
"X  c #2B2B33",
"o  c #252C3B",
"O  c #2A2E3C",
"+  c #332A33",
"@  c #322E3A",
"#  c #2B303D",
"$  c #35343D",
"%  c #3B383D",
"&  c #272F43",
"*  c #2C3343",
"=  c #2C3549",
"-  c #313644",
";  c #363945",
":  c #3A3A45",
">  c #313748",
",  c #343B4B",
"<  c #3A3D4A",
"1  c #333C50",
"2  c #433E45",
"3  c #453F4A",
"4  c #3B414D",
"5  c #354056",
"6  c #3C4454",
"7  c #3C465A",
"8  c #3F485A",
"9  c #46434C",
"0  c #48454E",
"q  c #4B4B4C",
"w  c #504D4C",
"e  c #414554",
"r  c #4A4751",
"t  c #444954",
"y  c #494B55",
"u  c #444B5C",
"i  c #484D5A",
"p  c #4E5154",
"a  c #4B525C",
"s  c #515353",
"d  c #50505E",
"f  c #58585C",
"g  c #5D5B5C",
"h  c #625E5F",
"j  c #444D61",
"k  c #465164",
"l  c #4B5465",
"z  c #475368",
"x  c #4B566A",
"c  c #4E596D",
"v  c #515764",
"b  c #565C63",
"n  c #5B5E64",
"m  c #525B6D",
"M  c #4F5A70",
"N  c #535E72",
"B  c #595E70",
"V  c #5D6266",
"C  c #5D646C",
"Z  c #566175",
"A  c #5A6375",
"S  c #566379",
"D  c #5B667A",
"F  c #5E697D",
"G  c #606467",
"H  c #61666B",
"J  c #6B6C6B",
"K  c #6D716F",
"L  c #757268",
"P  c #7A766B",
"I  c #7D7A6D",
"U  c #626A71",
"Y  c #656A74",
"T  c #626B7D",
"R  c #6F7271",
"E  c #6D737D",
"W  c #737472",
"Q  c #757977",
"!  c #7C7B74",
"~  c #767978",
"^  c #7B7D7A",
"/  c #827E72",
"(  c #7D827E",
")  c #868275",
"_  c #898476",
"`  c #83847D",
"'  c #8A8679",
"]  c #8E897C",
"[  c #928D7E",
"{  c #95907F",
"}  c #99927F",
"|  c #5E6B81",
" . c #626D83",
".. c #686F80",
"X. c #657185",
"o. c #6B7485",
"O. c #6F7887",
"+. c #667289",
"@. c #6A758B",
"#. c #6D788D",
"$. c #707580",
"%. c #727983",
"&. c #737C8C",
"*. c #7B7F8B",
"=. c #6A7791",
"-. c #6E7D99",
";. c #737D92",
":. c #717E99",
">. c #7D8281",
",. c #7A808E",
"<. c #768195",
"1. c #7B8493",
"2. c #74829C",
"3. c #75829E",
"4. c #7A859C",
"5. c #7C889E",
"6. c #7784A0",
"7. c #7A87A0",
"8. c #7D8AA2",
"9. c #848782",
"0. c #898780",
"q. c #878983",
"w. c #8B8B83",
"e. c #8A8D89",
"r. c #928E84",
"t. c #928F88",
"y. c #8F9187",
"u. c #949187",
"i. c #999381",
"p. c #96938A",
"a. c #99968C",
"s. c #9B988D",
"d. c #9E9A8E",
"f. c #858A96",
"g. c #8A8F97",
"h. c #848D9C",
"j. c #8B929D",
"k. c #9E9B91",
"l. c #A29B87",
"z. c #A19C8E",
"x. c #A19E93",
"c. c #A4A196",
"v. c #AAA595",
"b. c #A6A399",
"n. c #A9A69C",
"m. c #ACA99E",
"M. c #B1AB94",
"N. c #B0AC9E",
"B. c #828EA4",
"V. c #828FA8",
"C. c #8691A4",
"Z. c #8A94A3",
"A. c #8593AC",
"S. c #8A96AB",
"D. c #8E99AB",
"F. c #9097A2",
"G. c #959BA2",
"H. c #9A9EA3",
"J. c #939CAB",
"K. c #8C99B2",
"L. c #9DA1A3",
"P. c #97A0AF",
"I. c #9AA1AE",
"U. c #97A2B4",
"Y. c #9BA4B3",
"T. c #9FA9B7",
"R. c #A9A7A0",
"E. c #AEABA1",
"W. c #A4A7A8",
"Q. c #B1AEA4",
"!. c #B3B1A6",
"~. c #B5B3A9",
"^. c #B9B6AC",
"/. c #BBB8AE",
"(. c #A3AAB5",
"). c #A9AFB5",
"_. c #A6AEBA",
"`. c #ABB2BC",
"'. c #BDBBB1",
"]. c #B2B7BE",
"[. c #C0BDB4",
"{. c #C5C1B2",
"}. c #B2B8C1",
/* pixels */
"Z x m c m x m m m m m m m m Z N m D T D A X.X.T T T T F T @.X. .X. .X. .F T  .F A A T +.T T A  .F F F D m m m m m c x m ",
"N 6 j c M M c x N c l N l l c m N m D N m F  . .A A A F F |  .| F D  . .F F F  .A N F D S S S D Z D Z N N x j i c k k c ",
"c k x x m N N c c M x N N Z N T  .F F F  . .+.Z F D  .X. . . . . . . . . . . . . .F F F D | S D F S Z N N N c x c M j m ",
"c c x E +.5.:.-.-.:.8.7.3.(.1.F T F  .X. .+.F D F  .+.X.| X.O.X. .X. . . . . . . . .F D D  .8.3.3.3.3.-.:.-.B.<.%.U j m ",
"m x N <.! ) [ ) I ) P P P q ..O. .T  . . .+.D T  .+.+.&.g. .X.@.1.+. .X. .X.X.X. . . .A N T s I ' ' ' { ) [ ' ` 4.l k c ",
"m c N 4._ a.s.c.z.d.k.k.d.V l &. . .X. .X.X.X.#.#.@.#.J.Y.Y.D.J.J.+.+.@.@.@.+.+.X.X.X.F D m G w.k.k.p.c.s.s.d.' :.c i l ",
"m c c -.) a.p.p.c.v.d.d.d.C B  .,.@.X. .X.@.=.#.#.G.h.4 6 < # 6 y <.1.#.@.#.+.+.+.+. .O.O.v H w.p.p.v.b.a.s.x.' 8.k l m ",
"N N M =.[ a.a.p.a.c.a.r.r.H l D.h.j.#.#.#.1.1.-.Z.W.&.6 t 8 j e < &.W.;.#.;.#.#.#.#.j.Z.].z b x.r.z.b.a.a.a.s._ 3.c l N ",
"F M c :.P d.p.a.s.a.b.a.` Q * : i m A T $.*.1.&.1.j.l u e 4 y 6 < l j.1.&.#.X.X.T A A j O < ^ p.p.n.k.s.a.a.d.[ 8.M N A ",
"D N N 3.P r.c.a.s.d.s.n.v.` 0.J C C a l r < e 6 4 6 i 6 j t < 8 i 4 8 2 ; e u i l n b C W 0.p.a.b.k.k.k.k.x.v.r.<.N Z N ",
"A Z Z -.P d.a.a.s.k.k.k.n.p.a.b.c.b.b.c.b.x.9., u e 6 u e 6 u y 6 i 2 e 5 / b.d.c.x.b.n.b.s.a.n.x.k.k.k.u.z.m.r.;.N Z F ",
"F N %.(.P x.k.] x.a.x.x.k.n.v.p.b.b.b.b.b.x.k.R Y b i i 6 4 0 u t l b n ^ s.r.x.b.b.b.m.k.u.n.x.x.k.k.a.w.x.d.) #.Z Z F ",
" .N o._.L r.p.k.s.x.k.b.b.b.E.d.k.b.b.b.b.n.b.d.u.p.N.m.n.n.n.m.m.m.n.n.m.n.n.b.n.b.b.x.d.m.x.c.c.x.a.a.b.d.d._ #.x Z F ",
"T Z Z S.w C ( d.k.z.c.c.b.n.c.x.c.d.n.n.b.n.n.b.n.n.m.E.E.E.E.m.m.m.n.n.n.n.n.b.b.b.k.d.n.x.b.c.b.x.p.k.s.` U g 3.m Z  .",
"A D S 5.l 6 < w.k.b.z.b.c.b.b.b.b.d.k.n.n.n.n.n.n.E.Q.Q.E.E.E.Q.n.m.n.n.n.n.b.n.n.k.x.E.b.b.n.b.b.u.b.p.` = u l 4.D D X.",
"A D D S j.Y.O w.x.x.x.z.c.n.n.b.b.E.d.k.n.n.n.m.m.E.E.E.n.m.E.E.E.m.n.E.n.n.n.n.x.d.E.n.n.n.b.b.u.c.x.x.( * (.H.o.D D  .",
" .S F  . .J.= ` b.x.b.b.d.d.n.b.n.b.E.x.b.n.E.E.E.E.E.E.E.m.E.E.Q.E.E.E.n.m.m.x.d.!.n.n.n.n.b.p.b.b.x.b.w.O J.X.@.D D X.",
" .D |  . .D.* q.n.c.x.b.b.p.x.n.n.n.n.Q.a.x.Q.Q.E.Q.Q.Q.Q.E.Q.Q.Q.E.E.E.E.Q.x.k.Q.n.m.n.n.b.a.b.b.b.b.b.w.# B.| | | F X.",
"X.D F  . .J.. w.b.c.b.b.n.b.u.b.E.n.n.E.n.s.b.!.Q.Q.E.~.E.Q.Q.Q.Q.Q.E.E.Q.b.c.!.n.n.m.Q.b.d.Q.b.b.b.n.b.e.: 8.|  .F F D ",
"X.F F  . .C.# w.n.b.b.b.n.n.E.u.n.m.E.m.E.!.d.b.~.Q.Q.Q.Q.Q.Q.Q.Q.E.Q.!.b.k.!.E.E.n.E.x.a.m.n.n.b.n.n.n.w.# 8.X. .| D D ",
"+.F |  . .J.& q.n.b.b.b.n.n.n.m.p.n.n.Q.m.E.!.x.n.Q.Q.~.!.Q.!.!.Q.~.~.E.v.!.Q.E.E.E.c.x.n.n.b.n.b.b.c.b.w.X 8. . .|  .F ",
"@. . .F &.C.. q.n.b.b.b.n.n.n.n.E.d.c.E.E.E.Q.^.c.Q.^.Q.E.b.b.E.Q.~.n.b.~.Q.Q.E.E.n.k.R.n.n.n.b.n.b.b.n.e.@ D.@. .| F F ",
"T  .| L.j.&.1 ` b.b.b.b.n.E.n.n.E.E.a.x.Q.Q.!.!./.b.b.k.c.k.b.b.k.k.b.^.Q.Q.E.Q.c.k.E.E.m.n.n.n.n.b.b.m.e.= &.<.#. . .X.",
"#. .F U.X $ h k.n.b.b.b.n.n.n.E.m.E.Q.k.n.Q.~.~.!./.n.E.~.Q.!.!.R.m.^.~.Q.Q.!.b.x.Q.E.E.E.n.n.n.n.n.n.n.x.a 6 . A.|  . .",
"#.|  .<., W b.n.n.b.b.b.n.n.n.E.E.E.Q.Q.b.n.!.~.~.~.~.~.~.Q.!.~.~.^.^.~.~.~.n.b.Q.E.Q.E.E.n.n.n.n.n.b.n.x.k.J > A. .|  .",
"@. .A <.+ ^ n.b.b.n.b.n.n.n.E.m.E.E.Q.Q.^.N.b.~.^.~.^.^.!.!.~.~.^.^.^.^.E.b.x.!.!.Q.E.Q.E.n.m.n.n.n.b.b.n.n.>.# A. . .o.",
"X.F Z <.# K n.c.b.n.b.b.n.n.E.E.E.E.E.!.!.{.p.^./.^.~.^.^.!.~.^.^.~.^.^.!.d.~.Q.!.Q.E.E.E.E.n.n.m.n.b.b.b.n.^ O 8.F | X.",
"X. .Z 4.< ^ k.b.n.n.n.n.n.R.m.E.E.E.Q.Q.!.E.n.^.^.^.^.^.'.^.~.^.^.^.~.~.^.m.Q.Q.Q.!.~.E.E.E.n.n.E.n.n.b.b.b.Q , <.Z  .T ",
"X.X. .B.+ ^ n.b.b.n.n.b.m.n.E.m.E.Q.Q.!.Q.n.n.^.^.^.^./.'.^.^.^.^.^.^.~.~.n.m.Q.!.Q.Q.E.E.Q.n.n.n.n.n.n.n.n.^ ; 4.D X. .",
"+.+. .<.O ~ n.b.b.b.b.b.m.R.n.m.E.E.Q.!.!.n.n.^./.^.~.[.'.'./.^.^.~.^.~.^.Q.n.~.Q.!.E.E.!.~.m.n.n.n.b.b.n.n.Q * 4. . .@.",
" .|  .A.* ^ n.b.b.b.n.b.n.n.n.n.Q.E.!.~.~.m.n.^.^.~.^.'.'./.'./.^.^.~.~.^.!.n.!.Q.!.E.E.E.n.n.n.n.n.b.b.n.n.~ * S. .+.X.",
" . .X.A.- ~ n.b.b.b.n.b.m.n.R.m.Q.Q.!.~.~.E.x.^.^.'.'.'.^./././.^.!.^././.m.E.!.!.Q.Q.E.m.E.n.E.m.n.n.n.b.n.^ O K. . .@.",
"T |  .4.O Q n.b.b.b.b.b.n.n.m.E.E.E.Q.!.^.!.b.~.'.'./.'.^.^.^.^.^.^.^.^./.k.E.Q.Q.Q.E.E.m.E.m.E.n.n.n.n.b.n.~ X K.o.| T ",
"@.| X.8.* ( b.c.b.b.b.b.n.b.n.m.E.E.Q.Q.!.~.x.!.^./.^.^.^.^./.^.^.~.!.!.!.r.!.Q.^.Q.Q.m.Q.m.m.n.n.m.b.n.n.n.^ = S. . .@.",
"T  .| A.O ^ n.b.b.b.n.b.n.b.n.E.E.E.Q.!.~.E.x.R.^.^.^.^././.^.^.~.~.Q.!./.m.E.^.!.Q.E.Q.n.E.E.n.n.n.n.b.b.a.^ $ A.|  . .",
"T D X.}.O H c.b.b.b.b.b.b.n.m.E.E.E.Q.!.n.n.b.E.^.^.~.^.^.^.^.^.^.~.!.!.Q.^.b.Q.!.Q.Q.n.E.E.n.n.n.m.b.k.p.p.J O U.X. .@.",
"T F | `.o 6 a x.b.b.n.b.b.n.n.n.E.Q.Q.n.b./.~.!.~.R.^./.'./.^.^.^.m.Q.Q.Q.!.^.c.n.Q.Q.E.E.E.n.n.b.n.b.k.p.f ; # U.X.X.@.",
"T | | &.F.&.1 w.b.b.b.b.n.n.n.E.n.E.b.c.'.!.Q.!.^.!.u.c.n.Q.Q.!.b.p.n.!.Q.Q.Q.^.x.n.!.E.E.n.n.n.b.b.b.c.` - ;.<.+. .| @.",
" .|  . . .J.$ q.n.b.b.b.n.b.n.m.E.b.c.'.!.Q.!.^.m.c.^.!.E.m.b.!.~.^.x.m.!.!.!.Q.^.x.n.E.n.n.m.b.b.b.b.n.`   J. .X. .F  .",
"X.| |  . .4.o e.n.b.b.b.b.n.n.m.x.x./.Q.!.!.!.b.k.~.!.!.~.~.~.~.!.~.^.x.b.^.!.Q.E.^.x.c.n.n.n.n.b.b.b.b.e.- I.1.X.|  .@.",
" .F F |  .5., ' n.b.b.b.b.n.m.k.d.^.Q.Q.E.Q.c.k.Q.~.!.Q.!.^.^.!.Q.!.Q.Q.k.b.!.^.!.E.~.k.k.n.n.b.b.n.b.b.w.* 8.X. . .F X.",
"T F | | X.B.O w.b.c.x.b.b.n.x.b.!.m.E.E.Q.b.s.!.Q.E.Q.Q.!.E.!.!.Q.Q.Q.E.E.s.m.!.E.~.E.!.d.k.n.b.b.b.b.b.q.o 8. . .F F  .",
" .S  .|  .C.. e.n.b.b.b.b.n.b.Q.n.n.n.Q.b.a.E.Q.Q.E.E.Q.Q.Q.m.E.Q.E.E.m.E.E.k.m.!.!.E.n.Q.d.c.n.c.b.c.b.w.- 4. .| F D @.",
"F x D  .o.I.= ` n.b.b.n.k.v.E.b.n.n.E.n.k.E.E.Q.Q.E.Q.Q.E.E.m.m.E.E.n.n.E.m.E.x.n.~.m.n.b.Q.d.k.b.b.b.b.q.* 4.| | | D X.",
" .S S  .&.A.@ q.b.x.c.x.v.n.c.b.b.n.m.k.E.E.E.Q.Q.E.E.E.E.E.E.n.n.n.n.n.E.n.m.E.k.n.E.n.b.b.E.x.p.c.x.b.^ . S.&. .F Z  .",
"F N Z Z.x e , p.b.x.a.a.n.c.b.b.b.v.m.m.n.n.E.n.E.E.E.E.m.m.n.n.n.E.m.m.n.n.n.E.E.s.b.b.b.b.b.m.s.k.x.x.u.< e m <.S D  .",
"N Z Z V.s C 9.d.x.p.a.n.x.c.b.b.k.a.n.n.n.n.n.E.E.Q.E.E.E.n.Q.m.E.E.n.x.n.b.n.m.Q.E.p.x.n.b.b.x.m.v.a.x.p.` H s 8.Z S Z ",
"F D Z 3./ k.k.x.p.p.n.x.x.x.c.b.u.b.b.b.k.b.n.n.E.b.b.k.s.e.e.s.c.c.p.s.a.p.c.n.b.n.n.a.b.b.c.b.x.n.p.u.s.x.a.P 6.c Z Z ",
"D c Z 3.I k.x.p.u.n.x.x.x.x.v.p.c.b.n.n.k.p.y.H t u e < 7 9 , 7 e < u v b u.p.k.b.b.b.b.p.x.x.x.x.k.n.u.t.x.p.I 3.c Z N ",
"D c N 3./ k.u.d.b.k.x.x.c.x.u.b.b.b.c.b.k.s.` , i y t y 3 y k y 6 l e 6 , ^ s.p.x.b.b.b.b.d.d.k.x.k.k.b.d.u.k.P 3.c N D ",
"m c x 3.] a.d.b.d.x.x.c.n.) ` R V f g a , 6 < % : < < y t 4 u e 4 y 4 * 1 < 2 9 i p n H K w.r.x.k.k.k.s.c.x.a.! 3.x c F ",
"D N l h.l.a.b.k.d.d.k.n.p.>.< O k A A  .&.O.<.f.1.C.n , j i < j r d 4.;.1.<.,.%. .Y m k : * ^ r.b.k.k.s.a.c.m.i.3.M Z N ",
"D N k ;.i.k.a.s.k.d.x.a.s.H j _.J.O.T =.;.j.G.L.h.4.o.e t 8 j e < &.;.#.;.#.1.<.1.;.#.Z.T.x b w.a.c.s.a.a.d.c.} -.N N N ",
"Z c c :.' s.a.p.p.c.w.a.d.V l X.N D D #.#.@.=.<.=.H.h.i < # : ; 4 j.#.@.@.#.+.+.+.+.@.j.L.m V p.s.a.s.a.a.a.a.] -.M Z N ",
"m c x Z.' d.s.p.a.c.b.k.w.U N  .A A D D F X.#.=.=.h.j.D.T.(.I.).).j.@.+.+.+.+.+.X.@.+.1.W.l C k.k.k.w.v.a.s.s.) C.M M N ",
"N x N H.W ) / ) } v.M._ P q X.O.o.Z A A A X.@.#.#.&.#.+.1.h.@.@.&.1. .X.X.X.X.F  . .+.| @.@.w ] ' ' ` / ] ! ) ! =.x N S ",
"x x x T Z.(.3.S.-.-.-.3.8.`.1.F F F  . . .A  .@.#.@.#.@.#.+.@. .X.F F  .X. . .Z A Z X.X.F +.8.3.8.3.P.Y.C.J.B.j.z c c Z ",
"x x M x T T c A M N N N N T T F D F F F  .D A  .X.F T F +.D F  .X.A A Z  . .D A A D F Z N Z Z D N N T A N A T N N N c c ",
"m u k M x N N N M N N Z Z N S Z Z D F D  .| F D A D D F | F A Z A A A m F F F Z D  .N m m D m Z x N N N N c c x N M z l ",
"Z m m m m m m m m D F A m  . .A Z  .T D T T F T F T  .T T T T T T T T o.+.@.X.T T D T T F A A Z Z N A Z D D m m N D m N "
};
